pauljac7700/serial_robots_datasets/3D_UR5_uncalibrated_grid_cleaned.csv
step_order,x_t,y_t,z_t,x_dif,y_dif,z_dif,joint_1,joint_2,joint_3,joint_4,joint_5,joint_6
0,-430.32784075885013,-6.2740647628546,-98.6368469428076,-2.144122241149887,-3.5212622371454003,0.8144149428075877,-22.933297010882566,-43.71915584236375,135.39784676276338,-94.74032099477175,55.416784894781806,-5.552224723991238
1,-463.68352728363686,-3.9434217627609005,-104.9310396449369,-2.072599716363129,-2.8804462372390995,-0.030132355063102523,-19.715908717115287,-45.88433417627589,127.58673648525605,-71.44195245436593,63.25406825744212,-12.680515922984348
2,-496.55705120712867,-7.9009004523901,-102.2673076687397,-1.9154387928713277,-3.2595295476099,0.1577676687397087,-19.443790792575786,-44.136201531157816,123.03188370745586,-73.82564879814187,55.85431883170015,-0.9814097416342191
3,-528.9026123810103,-9.231436331186,-93.64236043673941,-1.8769516189897786,-3.8340386688139994,0.8912574367394086,-18.232225860252846,-39.982614913680806,121.1335285744129,-95.66211195850192,54.93262044841854,5.601157656281401
4,-564.1185551211407,-2.3467556227446003,-102.7861905036491,-2.1660868788592325,-2.6039123772554,-0.05773849635090755,-14.77559498326301,-41.66583548563355,112.34783902596327,-65.22567564943922,70.94561721340693,1.5689073142216587
5,-596.6476501126325,-4.1233715884616,-106.71851459447609,-2.0351098873675255,-2.3938314115384003,-0.6175314055238061,-14.233792044243819,-40.04169531609911,104.12000130670292,-50.6071084893651,68.4862022737471,1.7566651600349623
6,-630.4102115735103,-5.3371252929329,-102.7810296046378,-2.100465426489677,-2.6843817070670006,-0.31187839536219997,-13.692568899979104,-37.76119612451784,100.26077638407085,-56.88373338734647,66.45426584023535,4.942571903752179
7,-661.9768771679974,-8.7907198279195,-92.0457155256615,-1.8805258320026041,-3.6452521720805002,0.4188315256615027,-13.682882114184974,-33.685778240538696,98.73809653841067,-82.21770060269321,60.390201865189766,7.352477759494598
8,-697.6625904693552,-0.1169998527389,-99.5111046611135,-2.3572745306447587,-2.1635531472611,-0.24510933888649333,-10.79537803253217,-32.993995885740844,89.56092217837626,-57.48751167385157,78.98973606536121,6.8393624796440315
9,-730.2740492933857,-0.9860581633289001,-93.40381711289119,-2.390937706614295,-2.4893328366711,0.29825111289119377,-10.387809845397213,-29.661928273873954,85.53422239867523,-68.43502349886012,78.03146989310007,1.3679060443461224
10,-729.339727795789,-7.556054015036399,-51.0084691694781,-2.003853204210941,-1.9680439849636011,-1.3265028305219033,-11.946540615286956,-34.95053516363877,77.99516489378354,-29.448365289447956,64.25433279835389,-2.5687785192297667
11,-696.0973311266413,-2.3859540585577,-35.0028761067773,-2.2898018733586696,-2.7682749414423,0.5879241067773009,-11.304038851899962,-37.81643432290511,94.96563665904074,-75.54336978218596,74.8370307924359,-3.0900043540829345
12,-663.1266481856431,-0.8901149666824001,-35.9258714737397,-2.3662018143568275,-2.5460050333176,0.7074174737396959,-11.602113523358971,-40.458663695874634,100.92216794736213,-76.83036419787491,77.20800026803376,2.886828260965656
13,-630.91936701684,-0.6598008265205,-42.3096362218471,-2.2950879831599877,-2.2206781734794,0.11969722184709752,-12.35997471902852,-44.098289025369866,104.39318654054193,-64.35692227658781,76.45041337850047,7.74449388209621
14,-597.5470296697802,-2.5773938900033,-43.5725376078407,-2.2009933302198306,-2.5893681099967,0.010278607840703557,-13.822034233088456,-46.55062731704824,109.69449213342064,-64.84428210365834,71.4145229402685,-2.346454499462074
15,-563.648244236828,-0.45692082668609996,-37.9793535501628,-2.2442407631720016,-2.7406471733139,0.658968550162804,-14.100644104400066,-47.15525781564268,117.78232762619947,-83.07413242720554,75.37230190857314,1.6933889238644024
16,-529.0512572429479,-9.1988613124219,-50.137018832090796,-1.590893757052072,-2.796567687578099,-0.5925021679092026,-18.238012147016676,-51.017748065614825,116.44114797994006,-52.45170089646369,54.89182221291985,0.21816436276605022
17,-496.5864301820413,-4.7661185494012,-37.8800050047731,-2.036308817958684,-3.3031444505987997,0.8196190047731022,-18.234427845465234,-50.00890804098725,128.8046478981123,-92.4969343428612,63.382808480471674,10.267400687369893
18,-462.08178542489793,-10.604087571039999,-49.1433623118609,-1.4883025751020682,-3.0388304289600008,-0.3108626881391032,-22.25408071170075,-54.64811391142304,127.6863203145628,-61.288328028304605,48.102795914562996,-4.590443033825975
19,-429.0396897466263,-3.6513610301213997,-34.228575316103004,-2.2050742533736525,-3.4243019698784996,1.583662316103009,-21.466912666182765,-48.686976967178154,140.3617830824712,-113.36134477798743,63.09986761828095,5.10885710863515
20,-427.8125461193607,-51.75208360938,-45.64942028007761,-1.8889438806392036,-2.9616143906199994,0.35968528007760625,-14.24330488729803,-55.721953614627594,136.44053973442618,-78.27801929235613,65.8964667058929,-2.285981894878241
21,-458.9518230082288,-56.2037955002696,-33.8989174315415,-1.8282479917712067,-3.404204499730298,1.4704594315414994,-12.257876724269575,-48.42486898651413,135.159659707149,-108.32688084634026,67.57911970435416,13.897452688834838
22,-492.8317045380692,-57.3320322799914,-34.8865251946402,-1.9281504619308407,-2.9645067200086004,1.2540391946401996,-9.549862392094074,-48.46876276907171,129.5563054555972,-99.69372595361305,75.09056564075367,12.821137379895408
23,-526.8155725825341,-63.3354065475058,-39.8395752646983,-1.9740274174658907,-2.9109244524941005,0.6538662646983013,-9.076386310434456,-49.48062680533302,122.68648156377164,-82.2333763316606,71.20778852631688,-5.290631622556991
24,-559.4040189752349,-70.4281823784058,-41.6465124380459,-1.6764100247651186,-2.965380621594207,0.23954343804600597,-8.970349204543691,-48.20715830527624,116.25280828896449,-73.75475113166588,65.13450574006932,12.182695962642578
25,-591.843811353623,-74.9021899203082,-50.4766655421474,-1.6010956463769617,-2.316876079691795,-0.7703994578525979,-8.043095602378639,-46.75509687105761,105.35851177233683,-46.208559459797094,65.03220412918368,-15.286666056637143
26,-626.5017685095179,-71.2897332795542,-39.4954388961671,-2.1477744904821066,-2.2669967204458032,0.476430896167102,-4.9109625048753305,-43.56763915751119,105.56688961002227,-71.27364697455747,82.13122456270021,-2.242743542232808
27,-659.0733905300054,-79.25751314749189,-49.621106043165994,-2.0129484699945124,-1.7858008525080038,-0.6478019568340088,-5.336803162105417,-41.7321285932814,93.8607438533256,-42.128897956415074,74.08691456457007,-1.6806748794231006
28,-689.9737931228523,-87.0665823774048,-34.759515830600506,-1.730463877147713,-3.1262076225951887,0.6290678306005049,-5.6264397059172335,-37.67254419549565,94.99046747363026,-77.23276104975044,66.51909928386314,6.918207654519154
29,-724.0359736137123,-89.5176956044012,-36.3678595071616,-1.8407873862877295,-2.8114803955988066,0.19259350716159673,-4.63288815869783,-35.43251718525681,87.78562652036346,-68.43862955397572,70.1046419093656,8.020788425716272
30,-724.6292828487843,-85.68330666820461,20.017652554535502,-2.108103151215687,-2.3738423317953874,0.3979454454644973,-3.6927821147554627,-41.08447664316065,88.88750627785018,-64.86654289773935,78.27391160878919,-6.620557588246113
31,-691.5878640646522,-83.4371792173332,18.7551796865324,-2.0357389353478084,-2.399641782666805,0.4155963134675993,-4.714580383866771,-44.261950773899784,94.9679302942439,-65.55448046070528,74.2007636247873,8.576755118236095
32,-659.6099730867467,-77.7063891282333,8.0019340457369,-2.1493639132532962,-1.5138438717666105,-0.6075170457370014,-4.915941238052794,-47.68076981591212,95.35088814593904,-41.77040029999918,77.3587399928846,7.96380127046834
33,-624.8461301163703,-79.9538799239004,6.6886225896758,-1.703687883629641,-2.064608076099603,-0.8611855896759009,-7.435399094549108,-50.278662193973915,100.13686411309905,-40.665531544342244,63.252498546705226,-0.4465222879097439
34,-592.4721130141966,-70.1385920606889,19.0923675257707,-1.8826489858034847,-2.5785439393111034,0.6365864742293006,-6.5555470439939905,-52.16412596781542,113.36440676203566,-76.61519084947092,75.6032119187583,1.8005392109886897
35,-558.5359641477403,-72.0232623140436,5.7353832571178005,-1.4930858522596964,-2.259595685956384,-0.7460042571179004,-9.466320205952922,-55.97418179564496,111.48461413627808,-44.149281287322665,61.677325087038255,-6.0153695144797705
36,-524.8668882654554,-66.9064135777538,1.9150203919718,-1.466785734544601,-1.9230264222462097,-1.0470033919718,-10.271118130242632,-58.419266868427506,114.7536007588193,-37.003893461967664,63.659766275433896,0.32099308650812103
37,-493.101153145962,-59.8846087030714,3.8408729235234,-1.8027878540379447,-1.8961002969286014,-0.6133839235235001,-10.596892497068431,-61.672846310735316,122.15076153236828,-45.94010964848148,69.11341504607624,-6.5897460235550716
38,-460.0324131362341,-58.7969865690282,7.789380406075599,-1.5258608637658995,-2.649844430971804,-0.2799814060755992,-13.506483245364025,-64.06122372262367,129.78808798234908,-58.668371883227046,60.69059294456042,-13.451874006195954
39,-426.74036203697057,-54.3079320171647,16.7716673034486,-1.6552479630294101,-3.2724729828352963,0.7938116965514013,-15.358168661778286,-63.5946520281901,140.01981941895585,-88.56766206149949,60.238164937525426,12.167823454908167
40,-418.3729993343383,-102.7699239641042,11.5982973118145,-1.419316665661654,-2.8306070358958095,0.2966016881855005,-8.396474361470458,-65.79202679782283,137.49806730592405,-72.7281817972645,61.760170247193,6.013651821178266
41,-451.5739413117958,-101.7917095056776,19.0023190143844,-1.8631526882041953,-2.516356494322295,1.0447089856155998,-2.383447494736801,-60.60801881792563,135.0517019678538,-89.26694317382317,84.25917676914483,-3.7888490374896002
42,-483.262958859716,-113.7246443021237,19.628220342622402,-1.5672351402840263,-2.7701906978761883,0.9853996573775952,-2.714457552607783,-58.518344811208095,130.2183782445576,-88.14579874081079,76.0396590483082,14.366921294697354
43,-515.5211883762721,-123.78978467984119,4.173492518095499,-1.5573436237278884,-1.9093873201588138,-0.6978515180954994,-2.3000148164097247,-58.99964508121105,116.82857729816057,-44.209886387402584,71.884779465284,-6.748709699263591
44,-549.0183168516988,-130.3954889213295,9.5086681003484,-1.7276991483012125,-2.198686078670505,-0.1471141003484,-0.7581388931340727,-56.330446305476386,114.44876100250073,-55.05675644861574,75.43186143536992,-7.0415053491073385
45,-582.2817107717051,-133.0408141301898,12.2376418533242,-2.0780992282949455,-1.9555458698102086,0.21789114667579845,1.8564050228612605,-53.33537550311831,109.93127266843969,-58.68046500178594,87.49188157609844,-7.421325950447969
46,-613.1914119278795,-147.4918140725838,15.0494543131083,-1.6530050721205498,-2.599456927416213,0.13798568689170132,0.5658650586269087,-50.408874972265004,105.65832968767981,-62.86562990992861,73.44722579219099,5.68512062059453
47,-644.8096957727018,-152.3278088361277,21.4401135635944,-1.709007227298116,-2.787571163872286,0.7501404364055979,2.1385054556456353,-46.46645423574557,102.30957758165437,-75.59729534451412,80.34072872297072,3.1554443749693615
48,-678.1135995894149,-162.20799591344252,16.009916646554398,-1.7865694105851162,-2.558319086557475,0.1076253534456022,2.2121796749736045,-44.5941181402562,93.61700002439437,-58.382333686308456,76.3374963405049,-4.943447841476081
49,-710.9545217233839,-169.7778851886253,9.7278874740546,-1.9548262766161315,-1.9853808113746823,-0.6127814740546018,2.85180277066402,-41.315606444636614,82.93108694014937,-38.993172370879485,77.2290882734254,0.1059392282325196
50,-711.880168912496,-165.3054341543172,67.3761717263708,-2.283444087504108,-1.4695928456827971,-0.3226347263708078,3.9819543397601285,-46.27007562309106,83.43257247231679,-38.47600155733398,86.80140436545581,9.945502382164982
51,-679.4177398059794,-155.0497261313635,70.60433325426659,-2.2296971940205594,-1.6288458686364606,0.1570937457334054,4.119258803797426,-49.81910644992829,92.09333457194559,-49.574862227755105,91.67169392335667,0.5085859342684894
52,-645.9456476989923,-148.0013424059311,75.3893230864109,-2.0694583010076713,-2.0835845940688955,0.7610279135891034,3.3601929665544987,-52.71515649945422,101.05618436675002,-64.68372899032366,89.62771472075892,-4.198560218769694
53,-614.6571269242926,-140.5706736524416,69.04435864449971,-2.1469390757074507,-1.690093347558303,0.18789635550018602,2.6528552370350877,-56.45775220550458,103.86180877680928,-51.80431500388722,88.57331500016268,-1.091035342514088
54,-581.7458324707308,-131.535207978523,72.9055057979796,-2.0020485292692456,-1.8590750214769969,0.5237832020203967,2.3325559983159425,-59.14753623367175,111.67086536523328,-64.13446197163115,90.70828369026928,-2.3644707424760836
55,-547.6994950983045,-132.5577741794696,73.2575714519115,-1.5671219016954865,-2.579461820530412,0.5218545480884984,-1.4984804572852177,-62.282336462101384,117.99784471723336,-68.74461029995514,70.5725652565372,9.087039297767616
56,-515.0240852037454,-124.3646517619199,58.5038338000873,-1.5735717962546687,-1.5208972380799963,-0.9719058000872991,-2.5073019178955454,-65.4889470756106,114.64198679129153,-32.94293041301098,70.60410656146229,-1.1159463940912897
57,-483.2440777651888,-115.666345734326,73.4613994207772,-1.5333452348111791,-2.543554265674004,0.5905175792227908,-3.5083548848936066,-68.11799367759156,129.07047164141704,-74.31265844805603,71.54231271155666,7.245778362590256
58,-451.3414605087202,-100.21980340851901,75.5829518787048,-1.8716964912797494,-2.0952465914809864,0.9467891212951969,-1.6746170573833457,-69.9738204798883,134.7705685837907,-81.5243259254076,87.86710261093272,-9.281261081510166
59,-418.6864862774675,-99.1040872370426,73.4177171100105,-1.5421837225325135,-2.5494137629573856,0.6169058899894964,-6.572717300960444,-74.09729477140472,139.67015344597598,-78.90395091028752,70.81782855876304,8.791391914718078
60,-404.17003380558504,-147.0920220220521,59.2675422447064,-1.3322971944149344,-1.7381789779478822,-0.8355232447065006,0.06776245271503892,-75.94782469701806,131.5465335483327,-40.949072911429816,70.69108976253659,5.08776766224628
61,-436.4212619020483,-157.2371388444849,71.7276540768132,-1.4266080979517142,-2.444027155515016,0.5059639231867976,2.6015706527354774,-71.5962025494061,133.4872298162432,-71.59333671271412,75.63174943295425,6.8372276613279555
62,-468.2699143039083,-164.97759427039168,59.7879421423613,-1.8591466960916136,-1.2546647296083222,-0.5189081423613047,5.665905987273276,-69.09401885074199,121.08619473929089,-39.13243065022071,85.55021172208968,-1.8173848582058116
63,-500.82731665332625,-171.88391097661378,67.3098275707046,-2.0419613466737587,-1.4645070233862327,0.3464434292954053,8.555754347590534,-65.65432530435109,119.53841836903442,-55.08167245390791,96.93861948070617,1.2483541815990882
64,-530.6304025009313,-187.39069438139032,74.9279791844764,-1.643828499068718,-2.2867566186096724,0.8332258155236048,7.938955120824948,-61.726836689570476,118.35817956744323,-72.0932277482343,88.40451095352817,-4.200226095201834
65,-563.1958547797003,-194.963586983394,70.7868110495694,-1.9749062202996583,-1.693919016606003,0.4207269504306055,10.047074643385976,-59.18874870492259,110.16715888771324,-58.68833329480306,97.82749769823182,6.071819884257524
66,-594.7436836585069,-207.1181512470209,65.76176133267569,-2.136639341493037,-1.429962752979094,-0.018586332675781136,10.48495034343837,-56.155121585056506,101.40216459154624,-43.56190890651147,96.95535556424227,-5.579547327679058
67,-624.1451259698783,-224.2264504134223,58.814494900926505,-1.9874290301216888,-1.3124165865777115,-0.9849949009265089,9.398748725976809,-52.06354650490898,90.78961458972258,-23.99297646636529,84.86497008715898,2.4426492795133194
68,-656.8245710506666,-234.2414665158292,66.1094642827242,-2.069932949333406,-1.6644394841707992,-0.3222452827242108,10.431655059843552,-49.68150389804476,89.37353334679861,-38.66191308930198,88.84009072193825,1.8194906494714598
69,-688.1791202366484,-242.98564371219769,71.6094872643839,-2.0841567633516433,-1.8189372878022994,0.15244273561610555,11.604241954376715,-46.28434876567314,85.77551327623067,-48.69900582984739,94.83944923643887,1.8865332877410042
70,-686.9715288073276,-249.3243071766499,118.9169720723019,-2.1013301926724353,-1.5926828233500885,-0.8323180723019021,9.995172167468855,-49.73754601418138,78.4543684744343,-22.524583365186864,81.29081226858887,0.861866293749712
71,-657.2739876784341,-230.8860413036192,124.05359711710399,-2.2637153215658827,-1.3554896963808005,-0.00981811710398972,11.323896017196692,-54.22222916066877,88.7279843297628,-37.91117235130711,95.98712894298055,-9.869004066899047
72,-625.1377663013665,-224.11936812916818,120.05325773674751,-2.047368698633477,-1.4828278708318123,-0.4755857367475187,9.474061648136763,-57.71769676070045,92.92727282939596,-31.18472831120253,85.43676853422049,-5.169630722844811
73,-593.7158770569719,-212.4410798071755,126.05803167630499,-1.8573949430281118,-1.8679461928244052,0.19260532369500538,8.864241434967477,-61.88888288024446,103.04757004963463,-48.29045452449999,85.30907193239268,-2.2391254725768537
74,-562.7667530671522,-197.5832807489475,127.72146991321759,-1.9362949328477725,-1.742080251052414,0.6108890867824073,9.199764013556278,-65.1765637001099,109.52928248445131,-54.57749516010801,92.0646001117346,0.5383684177740996
75,-531.6646671650376,-185.8701436857746,126.5892682594808,-1.8887908349623785,-1.627930314225381,0.4004887405192079,8.50817447399904,-68.73023857387919,114.47950311886966,-53.85264765436167,92.01586278576153,6.107804850177882
76,-499.6868779467576,-178.8878356953675,125.1345000102469,-1.7028900532424132,-1.8354323046324907,0.10907698975309188,5.899646225636322,-72.64778476570702,119.50282468614681,-52.310742800499725,81.15085764448337,8.82318453809375
77,-468.9905697289176,-164.3201688824241,118.97423146901059,-1.9532602710823994,-1.2447021175759119,-0.3538484690106003,5.963657244009881,-75.99807061165392,120.85100349374657,-38.83152744221001,87.18992144034046,-8.463288693116738
78,-436.32661862814507,-151.5640375316357,132.2914771032793,-1.5505523718548488,-1.9501404683641965,0.8841328967207005,5.14629758313027,-78.52782851255262,133.38469306472385,-73.81665764482969,88.65219859502511,2.6074767144189224
79,-405.9057132480105,-142.6603148191743,127.2252577594023,-1.6268377519895125,-1.9157301808257046,0.3333892405976968,2.326323090519548,-83.98480193173573,136.10142061421976,-61.51033634608236,81.4131783286223,-1.8190128539537163
80,-419.9548753537901,-95.2836067431079,124.87106578816359,-1.8880446462098917,-1.4812662568920985,0.11313421183641026,-4.708505231075798,-84.33162732015784,134.8361168978353,-55.48689594354856,79.68642744007674,9.845832884377916
81,-450.0005895539178,-107.5077708756655,132.223853324857,-1.4860054460821743,-2.405055124334396,0.653603675142989,-4.904854601996285,-78.92795171484991,134.02125953972254,-75.0151090475843,71.23896931365218,12.455010807656242
82,-483.2271417689807,-117.75799644502109,125.24273479690079,-1.616780231019277,-2.1408615549788976,-0.07691579690077788,-4.365540033090648,-76.41426686303284,124.97201977882699,-54.65353919615055,66.5711091142204,4.722257579453477
83,-516.3309179821026,-115.0818781643779,130.7312326070202,-1.9876500178974084,-1.7625328356220962,0.7278133929798116,0.9482844546308488,-71.73480139001103,122.12442389242338,-66.32530621705646,91.32966709961376,-8.247381883545666
84,-548.1339595157331,-128.88316138642182,130.8854523203743,-1.7023234842669126,-2.2950976135781787,0.541418679625707,-0.23197291690869193,-68.54809913053647,117.28564844173373,-65.28782264675098,78.82855416700838,-5.606996174384811
85,-581.6978358079915,-135.7367280966473,126.3471464444029,-1.9689291920085452,-1.7601509033526668,0.16689855559710054,0.9850592891079819,-65.47307757225076,109.1409336953674,-51.398005501332115,81.59238885123617,5.159902553488348
86,-613.4312439203449,-147.51646528091618,123.1801267059293,-1.9075040796551548,-1.876309719083821,-0.4054347059292951,0.5591542876896735,-61.82258399999121,101.34182067664294,-41.367024194148776,73.39756705346994,-5.5895274003433855
87,-647.0652113605497,-148.73646574566098,119.9938135539867,-2.264723639450267,-1.1813062543390345,-0.5246515539867005,3.1724089100502106,-57.65427444112424,92.79285758438051,-31.014344374723926,88.20513439915841,-9.591474893863332
88,-678.1302378794368,-153.61626772260658,131.9507119849285,-2.194060120563222,-1.6715912773934178,0.6463260150715087,4.469678613881328,-54.37569880670687,93.68167934446636,-57.653746020314614,94.47931871445287,-10.670299397944088
89,-712.0440047423873,-163.3263939112564,123.571053804106,-2.414828257612726,-1.2318630887435233,-0.330535804106006,4.477938329179102,-50.50439707589419,81.84340140449861,-33.83313281486503,90.96854246324953,-0.09600791581897145
90,-709.4364157182305,-170.4320395979371,186.655270407143,-1.9546782817694748,-2.0997154020629125,0.07634359285697201,2.6706435688935066,-55.18908572985592,84.7569634268709,-46.759352108458515,75.67077214863879,1.8655523098611129
91,-679.4392770294716,-155.43896364437322,174.17036745425528,-2.4352849705284143,-0.6114113556267853,-0.7710714542553774,4.0171850371080815,-57.06136719652347,81.86785602074451,-18.123200760965517,90.85543033870337,-0.2865285013716396
92,-645.4301078580231,-156.5493368256529,178.11234119106538,-1.9954981419768956,-1.6237531743471152,-0.5949571910653901,0.9606620937243407,-62.16126720033902,91.72443574912988,-30.21647892247393,71.17681805350583,1.347397265648505
93,-612.5765831823218,-144.72560562550228,187.476087347688,-1.8601298176782848,-2.045569374497717,0.6048116523119802,1.3898422013492622,-66.68070870219512,103.99327352164148,-55.86614169055501,79.48573834117421,0.6012816744123358
94,-581.1300408499054,-136.1446779493111,170.9354684718685,-2.115616150094638,-0.7738670506888923,-0.9723644718685875,0.8511243733978718,-68.49876419672248,98.55811830941089,-17.134564639638764,80.68072502131298,2.098110257816172
95,-548.5888369908106,-125.8175730827506,186.43824667154098,-1.9107510091894255,-1.635295917249394,0.47692632845900107,0.8250684383634443,-74.25010845161574,114.3479665584536,-56.37046504512554,85.56816204965253,3.027895591939428
96,-516.657802685438,-122.5508855647106,178.40968317518679,-1.8878203145619636,-1.3353234352893963,-0.4020581751867951,-1.8496317006608265,-78.21321768147722,114.93894150734334,-37.93700197557574,74.63909310440596,5.208681065002958
97,-484.797764334358,-106.9250988773725,181.949381255103,-2.0814926656419743,-1.0503251226274983,0.2731117448969087,0.04883067986216098,-82.21950404725372,121.784553340616,-47.30079114583216,91.3342130060361,-6.514550463541443
98,-451.4089240950221,-107.3407103479301,182.3281196917873,-1.7442949049778917,-1.6414806520699017,-0.12102669178730707,-4.883920746082078,-87.10691155768106,127.56017142061283,-49.36545011193912,71.34949967324198,-6.389757353636065
99,-418.0769316440144,-101.30508572800929,170.9882010180227,-1.6317033559856213,-1.0954682719907112,-1.2938800180226906,-7.639733630575643,-89.55486059127323,124.83619491249544,-21.363346069373968,65.58231668541055,-9.388028662708606
100,-403.614714643397,-147.88308526163542,186.0823321269654,-1.2880903566029929,-2.2533067383645857,0.18945387303458006,-0.3310542726837579,-91.65624202423118,134.68985092728158,-59.73777256356212,68.7509300614978,-2.0646229208693327
101,-436.88442894502583,-154.4890410242249,171.421646010828,-1.880202054974177,-0.8109779757750175,-0.924671010828007,3.856611572147253,-85.25618992943386,120.35515219742625,-23.15181815810972,82.08367011316076,-3.5441387570185103
102,-468.5040678197152,-166.4048644694311,181.7741025289205,-1.8077031802847614,-1.5824055305689058,0.11632947107949576,5.092467571830904,-82.53476100938043,122.05955725066305,-46.99787770070378,82.3860304812546,0.6433087358042618
103,-499.2952277696644,-177.2955351836351,185.1435237459996,-1.7345072303356233,-1.7916868163648871,0.4360412540004006,6.47794980772019,-78.29899820030361,118.90125987594293,-54.41019666357636,84.58974468957187,-4.709389095655015
104,-531.734855823827,-185.053896962041,182.2237321846178,-1.9618361761729375,-1.2968580379589127,0.15641381538219434,8.789782125130182,-74.06106592181351,111.46569347302953,-45.66866781387446,93.80758098669382,3.3868290695608905
105,-561.7498937789669,-202.30117060330141,172.0394783545195,-1.9659002210330527,-1.1311153966985614,-0.912255354519516,7.656294318408034,-68.81709819922612,99.39500880180265,-19.794172878687363,81.62330421691948,-10.59858706947564
106,-593.2616326391517,-211.35056976728052,185.2776816163653,-1.8663613608482592,-1.7767082327194714,0.5866963836346883,9.165185799539215,-66.62144287762425,102.45875479197714,-49.85190099119868,87.46724350714084,9.353723249881336
107,-625.2499666739476,-216.9411634233436,185.1399343724328,-2.1517343260524058,-1.3421725766563952,0.6261356275672085,11.452503297586231,-62.345004131806235,95.69056997123305,-47.32328703190165,100.51428253320914,-5.366067679783808
108,-656.7678171818768,-232.6091844146926,173.1494786534511,-2.3526758181232026,-0.8683775853073996,-0.7859676534511095,10.85253092433172,-56.71286743765287,80.92479114193151,-15.619154327461366,92.2046235229351,-6.877095006281741
109,-687.3247736457225,-239.174580366279,187.1764281285982,-2.1484263542774897,-1.3460206337209968,0.6218298714018147,12.482665550253508,-54.54624471285398,83.96034484370645,-47.49371666825745,102.3280049529011,6.351925163250509
110,-687.7628236003443,-246.1958787842733,237.3740824563523,-2.3269293996556826,-1.3778842157267093,-0.05807645635232461,10.799461266202446,-57.61509120037204,77.23374804369175,-27.112562785668857,88.06889294570283,-0.18843920858216875
111,-656.4319724517204,-232.0195203954956,240.1697672427474,-2.2155025482795736,-1.4013736045043856,0.40047375725256984,10.988254938017374,-62.194116792420076,85.89646129078704,-36.46392317966268,93.29153571898294,-4.919370777367051
112,-626.0492634397922,-218.5148280396079,234.7177870080105,-2.319316560207767,-0.799541960392105,-0.04162800801051958,11.06597918351963,-65.25845648567606,87.90363002944036,-25.227166601545605,97.53717692270612,7.260473762816697
113,-593.5397339711934,-212.5916204660657,228.5357616414154,-2.2207680288065603,-0.8436375339342703,-0.7754126414154143,8.81152210431484,-68.23450351836823,89.83184452883344,-12.659188142888883,84.93073886770709,-2.7562211231981744
114,-562.7650020080575,-196.5039148381114,239.4427656296968,-2.095448991942476,-1.1934781618886063,0.37035437030320395,9.53981751159734,-74.40657918199585,103.16342130414867,-40.15658699701571,94.36959938085214,4.723336513147889
115,-531.6470897960822,-188.06722839051452,232.9950111004474,-2.1135122039177077,-0.9337056094854859,-0.3211341004474093,7.755581220148993,-77.85467082582191,104.49191889012145,-26.011205822428785,87.24160791087569,6.903657218800494
116,-499.8711413666134,-178.43295765551488,235.4334020328905,-1.9702816333866053,-1.177902344485119,-0.17276803289050235,6.077231001440175,-82.75463621292617,111.5049544038145,-32.67099616456116,82.20878472959615,7.078792669198981
117,-469.1968805106576,-158.7476986088871,237.7360833040995,-2.1275404893423797,-0.5954683911128882,0.32206769590050044,8.2245625457975,-86.69789597113198,117.05478335331993,-38.64194453274975,99.73307295608127,7.198721753607691
118,-436.6520469260276,-157.6361456680254,231.1633715107946,-1.8387490739723944,-0.9819963319745852,-0.7556375107945996,2.424863733870926,-90.99286351035225,118.4221353717169,-23.267882669255822,74.71375145951345,7.726659406509537
119,-405.4340189034798,-142.4743288308209,240.76830857714708,-1.7135700965201863,-1.2921721691791106,0.25205142285290094,2.4102466600410803,-97.42255331319112,128.97601207922506,-45.576472143262315,81.80604448385628,12.042148333072678
120,-419.7810290417243,-91.63423088706101,238.4834210695212,-2.0409179582756565,-0.6714341129389823,0.11516393047881479,-2.864440036969771,-96.92363837087692,127.26676652118293,-39.910345104339065,88.30680401511496,-7.901818451095453
121,-452.0404364717343,-103.6103525866872,238.2395789072555,-2.0280225282656374,-1.0648014133128072,0.06506309274450928,-3.2144258926031495,-92.31101663354609,122.99654425349708,-39.933053055108985,80.0152873847417,-1.998213207633972
122,-484.1941524704232,-114.5271850550664,235.9595260519876,-1.9445715295768196,-1.1622639449335992,-0.37146905198761715,-3.0628929356932293,-87.41886677120789,116.92259693316733,-34.557838858831985,74.07597603293206,11.312535782470961
123,-515.471274148754,-123.8178110741863,226.2237099786925,-1.9303078512459706,-0.7658209258136992,-1.3278599786925156,-2.3096615239223053,-80.2305912752434,104.94933017041105,-10.75037772509892,71.82485058355245,-8.239616595729242
124,-548.3961080182779,-123.1366628177503,243.0459256668506,-2.0536039817220626,-1.178907182249688,0.6234413331494011,1.7436089354512905,-78.79558288472501,110.94290507197246,-50.4117037278727,91.39421762564908,-1.8980724075260116
125,-582.0987433669687,-134.1193073687972,235.84108285690112,-2.2745716330313144,-0.9757256312028062,-0.17040085690112505,1.5080272739869665,-74.25425853546732,101.1249476547886,-31.527505024773472,85.1375456450299,8.210784749892245
126,-613.2342088017513,-146.0858317947861,239.38891534056899,-2.0906991982487853,-1.6109012052139065,-0.10257434056907755,0.9875216217508167,-70.70733206479835,98.0892686323844,-38.96840538087526,76.55410355622777,-5.891414870711608
127,-646.3624203296636,-150.5788518814806,227.45966034197372,-2.4213856703364627,-0.5289401185193867,-1.1028143419737262,2.645756762272493,-63.56731839295997,82.60891048602423,-8.06282479162907,84.20910600142976,8.124083692874843
128,-678.0536854767951,-163.48508637415878,235.3997162000674,-2.2399345232049654,-1.4107976258412123,-0.6538102000673973,1.8739426479034378,-61.622051008342396,82.6753361175291,-25.038594812885638,73.55494175987698,8.496027558705872
129,-710.847928367457,-163.3859229022232,241.9418875351471,-2.4345846325429648,-1.2660120977768088,0.22296546485281965,4.4400127669509875,-58.26570446910941,80.63833110178163,-38.496392672815944,90.64979712916863,-2.8404372929260036
130,-709.6426891321867,-169.3358040154889,279.63563360782837,-2.6790128678132987,-0.4137039845111019,-1.5560096078283436,2.94538656876006,-54.03802027802465,58.37348895206416,13.430272620995042,78.030298376345,3.9577687800598
131,-677.8296010739482,-159.5608856707725,297.7449571029094,-2.250040926051838,-1.3969873292274997,0.17528089709060168,2.9066693909845225,-65.41545094736242,83.18593640550824,-34.53929636924042,81.96675285234588,-7.16631307732871
132,-644.2850506050253,-155.31533135748498,298.3742871968004,-2.0628993949746928,-1.6849216425149223,0.13603480319954997,1.3001963994178805,-69.90080982659623,90.02192490148647,-38.69602711773764,73.85458543591969,-4.048803421030887
133,-611.9622644630066,-146.55472080587901,299.0084270140327,-2.0074915369933706,-1.5719651941209918,0.26598498596729314,0.8414063677611364,-74.25722720589663,96.29404233148934,-41.74342098567291,75.48210310516458,14.220278214793884
134,-580.3445601294343,-138.4903422145085,296.7495224965504,-2.0527218705657333,-1.4608427854915078,0.058033503449564705,0.09697424468030968,-78.33595068664337,100.20443698769388,-37.05161746717343,75.50530416141217,5.33271816649744
135,-547.8926984859368,-131.3014948878739,296.2878732116705,-1.9812915140632867,-1.3302321121261116,-0.03489621167051382,-1.065842941621438,-82.68044782945672,105.14285974781976,-36.88218139868639,73.42540471346193,10.813489485003846
136,-516.0795713482879,-124.5745462029134,287.66184703117295,-2.030648651712113,-0.9192877970865965,-0.9608990311730281,-2.603733559105806,-85.13623552570182,103.87426984230646,-16.32397740056481,70.00561785745865,-7.973836121386623
137,-482.1971254434832,-117.7399486467099,297.16273574223067,-1.7657555565167513,-1.5149203532900941,-0.09258574223071037,-4.326148392015062,-92.00242628412818,115.51552980249093,-40.393426010371144,66.80284260222211,6.071409170998245
138,-452.1197282226417,-104.814190709278,291.87957210399753,-2.0144477773583276,-0.6923612907220047,-0.3920771039975648,-3.76217570160758,-95.7505954637364,116.18961956657373,-26.116754481601642,77.19768889078667,-6.167422700967669
139,-419.1911289617436,-98.5498522551424,284.1061830870147,-1.9790440382564043,-0.35897474485760483,-1.2730660870146835,-6.322253421715131,-98.14835004376724,115.19312415701289,-7.7103913360020115,72.02662333923985,-11.390383746650262
140,-404.0676035903712,-145.4014912262572,298.50374651163094,-1.7270164096287886,-1.3957437737427938,0.14377948836903442,0.91916342395864,-102.1245658132593,124.88842498613712,-41.51365862054029,74.77655957456876,4.249559684063982
141,-437.8276568464395,-151.3408192277542,292.51448624899604,-2.026788153560517,-0.5357797722458031,-0.029278248996035927,5.307282472517744,-95.45479312567201,116.21888591556979,-27.480764482830555,89.47193851614944,8.591786101111449
142,-467.8623664945671,-168.12081138067282,283.6191127079331,-2.1052455054328902,-0.5343696193271796,-1.0990027079330957,4.367762057446068,-88.33564296583543,105.83941930835331,-7.508941195034333,78.36440257314682,6.088695772572868
143,-498.9942332548049,-171.23574876640708,299.44102908339545,-1.9777007451950794,-0.9349322335929173,0.7228779166045456,8.691088265343032,-86.65602030327129,111.33160489101633,-44.76772864555259,97.75185138548734,-6.2208740200458035
144,-530.4471314502202,-183.5794412374541,299.0105712690267,-2.0072615497797415,-1.0320777625458106,0.6552397309733351,9.219381491920469,-82.28712822820519,106.19887625837619,-43.09874182667023,96.55178029883893,-0.3506600207538482
145,-563.101541486276,-198.7027756642195,288.4885710908145,-2.354441513723941,-0.6419323357804956,-0.5421780908145024,8.86231965421154,-76.29368877562513,93.73268880144606,-16.699086410765283,89.78317240310201,-6.358093588525006
146,-593.0487053033331,-215.5282585090118,288.9118999396634,-2.1937046966668277,-1.14438749098818,-0.7841189396633581,7.918145572305202,-72.24010086629552,88.60502520175193,-16.408328833388328,78.48056058580605,-6.2228978672873625
147,-624.3445568920141,-226.90432871993198,287.4400488537255,-2.2816231079858653,-1.0009922800680044,-0.6896568537255803,8.66494203651551,-67.31431509864514,81.19354010853776,-11.152680851513036,79.26539125251765,2.137651421142377
148,-656.0656623770591,-235.04320447961192,282.9567340775661,-2.5629836229409193,-0.6408125203880672,-1.2031780775661218,10.187332613770247,-60.82355779768178,70.03523824026436,1.8369711413124972,86.88788288580938,-1.2879661976797623
149,-687.7393104096176,-247.2466488686643,290.43179502386977,-2.5499685903823774,-1.1259701313356913,-0.5273200238697768,10.54044618377625,-59.03927002913203,69.96880713516072,-13.789748630217169,85.8918433617376,1.22488030810207
150,-687.1501576624977,-248.6103998038897,348.20022325259447,-2.5807723375022533,-1.1570701961103111,-0.37655825259446374,10.17866899705639,-60.969691399395586,65.7133790306873,-11.757320524912808,82.84313893301162,5.381910658512082
151,-656.2319584562828,-235.37839867605538,339.9176640040209,-2.713883543717202,-0.5185203239446139,-1.0396220040208846,10.10793642321487,-62.322503097346996,64.59097938556519,6.1462912049074525,86.2529710940692,1.9895826935265402
152,-624.3923600687464,-226.6756403891548,346.43427085592907,-2.421754931253645,-1.033060610845098,-0.4432248559291452,8.730624840893153,-69.94497090000911,77.98605324568749,-11.780849810349613,79.769457659485,9.768168842861323
153,-593.1386071413494,-214.8102006619045,341.4384782766208,-2.4178598586505586,-0.6966053380954804,-1.0740822766207998,8.135538229923355,-72.6748999463842,79.75573339843264,-1.43121058746462,80.0586076703263,-1.8529802132193092
154,-562.1294260666299,-199.4542155496894,351.5725948177347,-2.199575933370056,-0.9222384503105161,0.2399251822653241,8.57700257152555,-80.24970701951489,93.58587569745704,-26.639210260723786,87.85610920422121,8.836182856111733
155,-531.566675682686,-184.3739677624032,350.2021560894119,-2.285283317313997,-0.5521912375968157,0.27609791058807787,9.011795411549087,-84.11436130237047,97.35780877741874,-23.992467253241887,95.22368661171603,-4.930715423546628
156,-499.1884661365949,-179.02990303098048,338.4678064980375,-2.2724958634050836,-0.3491629690195168,-1.2623094980375527,5.8273658905305075,-85.15457329231056,93.89291990118251,2.526924482532909,80.71963275335456,-11.099137547985494
157,-468.6721078694547,-165.1523838760324,339.8270777362772,-2.324528130545332,-0.059240123967612135,-0.9173917362772386,5.610871754189499,-90.26103563967888,99.64479665940893,-0.7880515919492184,85.24691566810647,1.7655146673965625
158,-437.2599667716009,-150.5727113141914,351.6429262933581,-2.1070792283990727,-0.41613268580860563,0.2532107066419371,5.62649400936626,-98.59511884837663,112.17173926640889,-27.006302161928282,91.09897355107066,6.802303460747344
159,-403.8141788187346,-146.1420463737815,354.1084698850819,-1.8729781812654096,-1.1421386262184967,-0.06952588508187318,0.5455550078825548,-104.92493081616125,118.43561653054779,-32.53688106130796,72.99219704312725,5.845882785050605
160,-417.46662098824686,-100.95395151264019,335.1068787153561,-1.8870790117531442,-0.10856248735970553,-1.801757715356132,-7.423817635814837,-97.45028180065825,105.07004684921367,11.531928198109126,66.65441032406235,-7.7084762362242065
161,-450.8565770970579,-108.3614701551156,350.53608913981424,-2.032086902942126,-0.8319428448844093,-0.4323981398142678,-5.323257413485851,-99.02507272798267,112.01716119289387,-25.14148120288152,69.01673435623856,7.000646379895251
162,-482.96139900791155,-116.69842751359221,351.1451665364426,-1.973675992088431,-1.0348774864077939,-0.2887885364426097,-3.9233749841146524,-94.28829419667943,108.20179600997037,-27.286770998551052,69.1531163190981,5.68261140752108
163,-517.0328990338062,-120.7128114240944,345.39255677195405,-2.3440779661938222,-0.44664957590559595,-0.6964687719541303,-1.160490981207127,-87.85432057444648,99.23802229695745,-13.170366924251116,78.79918766593232,-3.6854353577064662
164,-548.5781402371135,-130.95247178425709,339.94061963596226,-2.279381762886487,-0.4238762157429221,-1.2599116359622826,-0.9491924383798228,-81.18863561785172,89.87906639003954,-0.005646615774962635,74.1879868577483,-12.219210848181143
165,-581.1923551117991,-138.4941820037079,340.9920083177072,-2.4104098882008884,-0.4388569962921167,-1.1919083177072025,0.0961995615007692,-77.07192376373885,85.25692706403503,-1.5794744422910219,75.49994361452421,-0.27858417487605924
166,-611.9404363289569,-147.9758314952934,353.2959504222858,-2.1709716710430484,-1.4355375047065877,-0.10749342228575642,0.41783896768319867,-76.37356703872545,89.79368054768985,-30.856288292423955,72.34654051804156,3.2775465580333982
167,-647.186258840589,-147.9548011457227,345.47987595893096,-2.688187159411086,-0.25143585427727544,-0.34106195893093627,3.3936712247148906,-69.4091709141881,76.85135586592341,-9.356282347893023,89.8814458122292,6.021105101788687
168,-677.7933247633148,-162.7392365736535,350.2292206181584,-2.494224236685227,-1.1203584263464847,-0.27011961815844643,2.0687183657839023,-66.5052590080382,74.86938821562043,-19.494597946535862,75.16117621656048,11.73676148620228
169,-710.0151643986666,-169.7089330492335,336.8151368002007,-2.8847216013334673,-0.3633979507664833,-1.5588008002007427,2.857341968713948,-55.180076095813085,52.5302130434108,17.263653359477168,77.27638612588899,3.0060743812914192
170,-711.8239978439234,-165.3195503302767,398.0391218713602,-3.0883221560766287,-0.09845266972328659,-0.7867618713601701,3.9774598788404223,-57.92924046192097,50.565512335616276,10.996145095898658,86.763630123273,0.45089548836078686
171,-677.1860220319232,-163.0849711526865,407.8801245419872,-2.50514896807681,-1.0194808473135026,-0.07966254198720435,1.9718873267828676,-67.86303820085504,69.69590292419822,-17.13838255343345,74.36408501402305,6.407674992315017
172,-646.6472129215033,-152.198034423123,399.91077889495153,-2.7228650784967385,-0.3526215768769987,-0.7698918949515132,2.1943439987968256,-69.58287818828407,68.51142783099938,1.23851743099481,80.76805286071361,-1.150576995063287
173,-614.4964708509365,-140.99324557335729,403.6735366566427,-2.6958101490635045,-0.27330442664271004,-0.2286816566426637,2.524189469252569,-75.75138169426884,78.227410500773,-9.287387780030581,87.65122319358115,-1.1989370652111082
174,-581.193374952447,-137.54244728905448,405.08157060556834,-2.4377760475530295,-0.6239497109455101,-0.3882206055683355,0.40241959716801445,-81.06252263367494,85.34222465396033,-13.941340612618268,77.61164319753618,-5.756815094540382
175,-548.556737937507,-131.1636857477419,395.7402024360419,-2.4471710624929983,-0.16799225225810233,-1.2719114360418757,-1.0223295787005047,-81.90895260826568,82.64433797156076,7.495346822518243,73.71018758713493,4.26901218217764
176,-515.5434828526376,-121.9818359055258,408.6161389276292,-2.2614541473624286,-0.6095770944742043,0.0544700723708047,-1.6232518945937513,-91.354121922034,98.13556896207218,-23.42602220345735,76.01194018272307,9.314011726353614
177,-484.1279025189339,-109.00241532339169,407.5280524524822,-2.252739481066044,-0.16799567660831372,0.26540254751773773,-0.7970463615707735,-95.44131048869023,101.36930645103442,-20.00646522865849,86.67235166027446,-2.5265889395001655
178,-452.4887785148155,-99.4825069090359,403.1523945861618,-2.377834485184451,0.380915909035906,-0.10571458616180962,-1.3570997756549177,-98.64135376881195,102.09577736485902,-9.29116661777243,89.4835949125881,9.093760535307986
179,-419.6161592751207,-96.10978601016471,404.6928258448313,-2.3729877248792945,0.023167010164712565,-0.48477084483130284,-5.111457935194542,-104.5010634909008,107.37407920936727,-11.78314043605972,77.7900002208399,2.2531159745927503
180,-405.00908202289196,-146.4116964857978,404.4827142420097,-2.2021429771080534,-0.5889935142022011,-0.5876552420097028,0.4143704126899202,-104.5550046231623,107.32500610683874,-11.497560374625468,72.36269602384465,-4.426797638803731
181,-437.9133979888389,-151.6452267409523,402.4261079323966,-2.3720000111611057,-0.010110259047706904,-0.21036393239660356,5.174052944186888,-98.41164105538515,101.5916300773822,-7.669632728607851,88.79351106314738,0.3815615941607582
182,-468.5864569205735,-167.1513360481681,399.43327944284715,-2.3173140794265237,-0.2622979518318971,-0.6798644428471334,4.789312306429583,-92.83109137887469,95.40175037227921,-1.5092287960566584,80.70777980657789,0.2925837220399198
183,-499.6037808984752,-178.8480261438383,396.2504108669409,-2.4119331015248235,-0.24465085616171223,-1.1388388669408869,5.911333505418375,-86.80612855890685,88.22259269896132,5.613505221295003,81.2205460322661,-9.281049067349063
184,-530.8665351065897,-190.2043613885783,395.7175302624743,-2.4787968934102764,-0.2572506114217106,-1.1199422624743534,6.986374848442611,-81.90803780740721,82.6270441357688,7.293127531450309,82.35591356222366,0.1334011974913009
185,-560.9645186214293,-203.7799401002631,407.1394541959939,-2.1938653785706492,-1.0984668997369056,-0.21677619599392983,7.1530952721287235,-81.69169360924907,87.06739116026695,-18.984240570304355,78.18829999870596,-5.5694070983977655
186,-594.3841231102101,-210.2356945354227,401.1519848471172,-2.65747488978991,-0.41720046457729154,-0.3869418471172139,9.54871597723443,-74.7044563962446,75.82477475890398,-3.2499805951439638,90.21604954742726,-4.1750778153656904
187,-626.0512906246273,-218.213429787395,401.687336794038,-2.73384237537266,-0.1041902126049763,-0.21483579403803787,11.148728631473867,-69.76358696282423,69.46983863134935,-2.858457546155795,98.17235483662098,9.45168090950813
188,-655.979032100521,-236.94273402258588,396.83813325945687,-2.845651899479094,-0.5833719774141173,-0.9542812594568773,9.688829302225624,-62.8860696267341,57.76681916507199,11.018808791723254,82.89512042231932,6.289534272864954
189,-686.7658966112965,-249.29402650139352,404.8461428595134,-2.757114388703485,-1.0986274986064757,-0.2200838595134087,9.993704275205335,-61.58869843901063,59.02681861795555,-6.53799936989464,81.27838777594755,6.976456020042561
190,-655.2736793783937,-320.2601869823779,406.31335062855015,-2.7477586216062946,-0.8413190176220837,0.24007837144984023,18.49743775864543,-61.70430249369027,59.89111536640733,-10.021027956379742,96.75601105641837,-4.461911132751977
191,-625.3351768023341,-304.72655105394097,407.44780954284636,-2.4796551976659202,-0.7363239460590307,0.5263194571536474,18.159932443274847,-67.14317411722621,68.43125859999323,-15.30710659567977,97.3530021379681,6.593436551181088
192,-595.8222288964456,-288.6686083991008,407.0759006672285,-2.4909711035544433,-0.69057460089914,0.31224433277145636,17.957459746916733,-71.7106944145006,74.55725859794208,-16.218547808341906,99.26535419685092,-4.170825922296024
193,-566.3861849315459,-275.0304205798105,396.0644850695068,-2.6931740684540273,-0.31586242018954636,-0.755603069506833,17.049987041371132,-72.13338342597572,70.58920249789023,8.881100969074659,96.21973887672988,-7.030407269248453
194,-537.2233856546749,-257.540218014726,400.20579091875067,-2.570126345325093,-0.20448998527399453,-0.21356091875065886,17.21058353511969,-78.3906225808948,80.06394534901332,-2.061126262080857,101.24681009803159,-5.472835735544059
195,-507.35252864387894,-242.69260860917518,397.89681335196605,-2.510589356120988,-0.024397390824731247,-0.4853083519660686,16.46004569571231,-82.08809160687301,83.5775493157845,2.463933317844358,100.2495722229203,1.8940466908295022
196,-477.371809508394,-228.55920067830658,403.1717046872627,-2.4148614916060183,-0.4380243216934048,-0.05126568726274172,15.320570659452365,-88.90828907585659,93.06736531261667,-10.082698520830826,97.52843005022584,-9.204814260726694
197,-447.7227777245574,-211.3399177851992,396.0943382768468,-2.498745275442616,0.31875778519918185,-0.5700882768468318,15.218087037749152,-90.34170602537628,91.80388058095222,5.926947282981022,101.58105931859528,-0.13996716267986076
198,-417.2300924032906,-199.417740047999,406.10394988428686,-2.15194859670936,-0.4957069520010009,0.16142611571314092,12.72570114901931,-99.42248897261234,104.0914098037485,-16.043970247627218,93.30902026405091,-8.746853134290381
199,-387.9279648425151,-185.1165774295128,399.0229690712044,-2.3585171574848687,-0.022984570487210476,-0.6224260712044156,10.946615627011552,-101.72979806024004,102.92443355744973,0.6115349919268342,90.53959643094215,5.495043120723276
200,-365.1769568666625,-220.4238606551999,400.8610070153949,-2.472030133337455,0.4019006551999098,0.0689359846050479,21.771236702734544,-100.83691399711209,102.93321166242859,-3.796785305487569,110.61598537205121,0.2316585900585385
201,-392.2218767396825,-245.0693888380492,401.4327754887385,-2.3380512603175134,-0.2706851619507802,-0.09619448873849024,20.143036642101436,-97.54720520747641,100.44423218212299,-5.566980871015435,97.16798548682115,-3.15029798178877
202,-419.2109381108602,-264.522937622077,393.98655630693116,-2.428530889139779,-0.09821037792295328,-0.9810263069311986,20.752980098482375,-89.82704268967089,90.62255228897806,10.437171723444841,95.23271485949317,-8.540861929541373
203,-447.9332107918791,-281.7832074895309,400.45052785994227,-2.4388602081209,-0.36670751046904115,-0.2706218599423096,22.256344781157242,-87.79734647926296,90.79203096721955,-3.8381337896583045,99.14916434720054,-4.140488266054409
204,-476.0592937066207,-298.3243368155588,402.2896748301033,-2.426972293379322,-0.3873531844411673,0.08052116989671276,23.679461285642237,-83.60232232353688,87.0086293889782,-7.769290556918625,103.85804755479131,-4.112484084295282
205,-502.21953251901033,-318.9891105007477,391.3313176308635,-2.6667134809896424,-0.162807499252267,-1.1700086308634923,23.450489186401818,-74.31256060247208,72.06393123497958,18.664072447727904,98.30713979634102,-7.495503639216118
206,-530.2139711488242,-339.31124202899673,405.6821528061872,-2.3024308511758136,-1.087542971003245,-0.0013768061872951876,23.561628916559993,-76.14121446746127,79.63853142850208,-14.101543002160822,95.10020880026622,-10.36594768075841
207,-558.3723926684995,-350.3500312068985,410.0589492168046,-2.2514553315004378,-0.8512297931014814,0.800560783195408,26.01581070964089,-71.90412236608667,76.45449693846906,-24.784499793570415,110.24889970978558,-16.464390151293895
208,-587.9431135059456,-367.1734605430747,398.4752057530403,-2.8571764940544426,-0.16008145692529752,-0.162659753040316,26.973044556388732,-61.48859839660337,56.24459347382355,8.365227706331066,115.39631662787755,-5.3399198091665285
209,-614.5087962044654,-387.02453106070163,408.6741596420216,-2.512200795534568,-0.7693009392983754,0.7681333579783995,26.836539365056396,-61.65968546733909,61.08373282056576,-16.905959675692856,111.33818175282768,-4.641365742610757
210,-615.1516798729436,-389.47996791623814,348.8059963811536,-2.5608311270563036,-0.9014670837618723,0.17948561884639957,26.368311942176835,-60.06100901046079,64.60155126226844,-13.00759915177243,107.14816363696845,-2.0437792511327593
211,-586.6882839396437,-369.7356715704277,352.66563902435126,-2.299499060356311,-0.9227484295722661,0.7104149756487459,26.234501527028833,-65.93369125177901,75.2993904025097,-25.652256721417125,108.97667366519589,-14.452638950657606
212,-559.3238383521128,-350.19875832295213,351.1777072670411,-2.3378166478871663,-0.7142756770477945,0.581264732958914,26.167812939817395,-69.927127403337,80.18149979612139,-23.753501853481083,111.49055182032176,-13.36286015633939
213,-531.2762447850503,-337.5782875341788,344.5051743379723,-2.4797542149497076,-0.7396794658212116,-0.29587533797234755,24.161388181756784,-73.19205643018573,81.57133376210571,-8.4930622063192,99.44910499163211,2.0392104054132725
214,-503.37062617366547,-317.59956568160857,339.27100779693257,-2.5227688263344703,-0.2713143183914326,-0.7388907969325373,24.00038080756788,-75.43803227838636,82.63712820802125,2.628118296371797,102.10091541516711,5.928047085365091
215,-476.412591560314,-295.1373414023729,347.0742111478322,-2.3486244396859774,-0.3334655976270824,0.32617085216770647,24.71473857168722,-82.18183083789849,93.73770009508937,-16.76240538525969,110.80102493011765,-4.379759265085562
216,-447.0530570084912,-284.3014808401325,347.7351278743032,-2.1491949915087503,-0.8468261598674758,-0.08631587430323862,21.263433026509322,-88.10155876421403,100.49627063019501,-18.497762783183394,93.20301144454177,-1.8818077063028282
217,-420.5324003098454,-260.8782426909667,346.0530319561606,-2.2948456901546024,-0.24192130903327325,0.013085043839396349,22.317823113653457,-91.46121828578383,103.14331207917806,-14.748333776273093,104.05139300461711,-2.7494929825410046
218,-391.88526699505996,-243.0725831058117,351.22818171770257,-2.0247820049399934,-0.5394228941882773,0.5195572822974555,20.921250641996107,-97.84300184256253,111.34359083922766,-26.391265569825222,101.21654730407083,-3.2238364001302435
219,-362.8615772047969,-227.9517085968586,335.9096523316365,-2.1459247952030864,-0.06414340314140077,-1.1803263316364792,17.919305400568067,-97.59023532169779,105.27195251071281,8.308852346609656,91.9727623273829,-0.7926242891131493
220,-337.0716551246196,-260.1866979331996,347.8947650736929,-2.1783848753803454,-0.18983006680042536,0.27806392630702703,28.9089585695412,-100.65361645505675,112.0763872668923,-18.369325411733875,113.03437506609455,3.2851535202152267
221,-361.300091913303,-284.9431063905043,336.7801706215328,-2.376200086696997,-0.029085609495723475,-0.7465526215328282,28.414940427404726,-92.13350410886402,100.58972075948573,6.417281738487564,105.59625865601964,14.00529888877781
222,-388.1656678432695,-304.3972827558295,344.9153763990378,-2.317917156730516,-0.3019742441704807,0.21825960096219887,30.362151252967912,-90.3270645484469,101.56029885060012,-12.172987614874609,112.14312792400891,-1.484447481613697
223,-413.2890145390703,-322.3081137977762,351.0841192758554,-2.128436460929663,-0.4195552022238189,0.835774724144585,32.128989041219185,-87.01772601134012,101.05217157126124,-28.298063061846694,119.6217275088614,-0.7892526152708667
224,-438.792203225949,-347.96184209350474,339.928168959738,-2.4147087740510074,-0.3085769064952615,-0.5102199597379808,31.49788541370898,-79.33851763486952,87.69362398371146,0.6597977643143812,111.60164667186451,-6.552907877450195
225,-465.068322869652,-365.34903553666607,343.9523083903283,-2.5315421303480434,-0.2250504633339574,0.029440609671667062,33.26118978740021,-75.48107707073912,84.32312786626277,-7.778384580497122,121.21802012751266,5.452030579453249
226,-490.0321304177392,-391.40259759844247,342.5275559641227,-2.4570045822607085,-0.5971174015574547,-0.27704696412274643,32.467686745302814,-71.40039144539388,78.44095760995823,-3.223262514740713,111.75139975141245,-3.344072913166164
227,-514.5235456693183,-413.3743585003401,336.7316792342215,-2.6156833306816907,-0.4704704996598821,-0.813759234221493,32.63962895232935,-63.965127957252264,66.14574065803198,13.162537710154226,109.90050867804547,-3.8918722454465904
228,-539.8779332031158,-437.9097018110423,349.066214698283,-2.2008197968841614,-1.2362891889576417,0.22490830171699372,32.35044557602675,-65.19968518769615,72.42833454880893,-16.081406031853565,104.35716694071378,-4.091122203139313
229,-566.6136982622795,-453.7813362431231,349.26413002951426,-2.4504457377205426,-0.9164907568768967,0.2875309704857614,34.06386144690678,-59.41931141652688,63.8464031807842,-14.433974510059404,116.52649377391147,-1.6636359872676239
230,-564.6579913405034,-459.6491143820527,407.6723753368849,-2.2688986594965854,-1.396684617947301,0.46990866311512036,32.597906573640415,-61.85404356091202,60.80548231164778,-13.686104566346662,103.32477323305903,-11.264805293780665
231,-540.7724798224184,-433.4903135206319,394.36355438623275,-2.875547177581552,-0.3684054793681071,-0.5590703862327473,33.441318868706404,-59.03513580417371,51.11478995086978,19.36832194471338,113.64114228017918,14.225699956253072
232,-516.064377347827,-409.316966343252,401.0444135342983,-2.5234146521730736,-0.3051046567479716,0.40820946570170236,33.79956796780035,-67.5376908041388,66.10599879170266,-0.7906028188812441,119.67548762270658,6.871581502882205
233,-490.5386879900342,-387.3390174539999,398.3660393331308,-2.675765009965801,-0.14003854600014165,-0.11641933313086383,33.54124885271075,-70.91606925073211,69.75928558750121,4.660634823550541,120.40862977567484,-6.6501881083780345
234,-463.9300072696178,-372.18881015551057,402.7570204869748,-2.2893917303821354,-0.8086308444894144,0.17182751302522092,31.264449344444962,-79.02470256677742,81.88193705314427,-8.173685966232043,106.29211144168548,1.8431570957608758
235,-438.06882019847336,-351.8415118026203,397.0558544181566,-2.3695988015266494,-0.549224197379715,-0.4628804181566579,30.243656595367984,-81.48651360813345,82.58965205659707,4.494608354805353,103.18484061047465,-3.813323697474677
236,-412.1140564307298,-327.2792026388152,408.9457943533621,-1.9445665692701937,-0.8587173611848016,0.7981056466379073,30.378210565439915,-89.9460675814529,96.9475033028686,-24.67595288651905,108.10694107451968,-5.321721824391892
237,-387.4163303675272,-305.8548722969995,394.4683651991075,-2.491959632472742,-0.07272870300050727,-0.6758461991074682,29.712258617805375,-88.92397481194813,89.87698593081184,9.878279849898977,108.27479568094667,-1.827897443339542
238,-361.68295192253856,-281.69339566359656,408.1957292122998,-1.9970530774614303,-0.3816643364034462,0.7735867877001397,29.72724762701866,-98.60218016229693,104.53568205157299,-22.59722840355089,112.78434687002249,-4.053590092353964
239,-334.9432737797111,-263.41407373982327,410.3739226116856,-1.8995932202889207,-0.7378762601767335,0.6653293883143192,27.056645591355583,-104.73529259642478,110.43439383562833,-25.85091619920033,103.74527459958752,-4.083061980837787
240,-303.7994519927258,-298.0730234709645,407.1833761211724,-1.9948830072742112,-0.5763065290354916,0.4573768788276311,35.156405857102754,-103.20147115715791,107.64549187141375,-18.80373131487776,110.87995734452545,-2.7001267093891066
241,-326.9574996507838,-321.6465631777764,393.36360028102615,-2.4613163492161902,0.005119177776407469,-0.5481742810261494,36.5473523329723,-92.27027857764192,92.89348670359077,12.892082548206076,113.6495583551206,5.909544658352876
242,-350.81067854709505,-344.34401955845465,401.6634650986711,-2.331918452904972,-0.2900814415452828,0.4071609013288935,38.12797786299055,-91.03548865488165,94.56162233204678,-7.042532037536477,118.96880601699402,5.933995134916182
243,-373.7569876092854,-367.9290321103615,402.1044742825334,-2.3755493907146388,-0.38802888963851956,0.2968877174666318,38.99831445795338,-86.45671534440372,90.06290175818367,-8.150345228781793,121.03491362107023,-7.277808304754683
244,-396.1338106369615,-395.1900979817614,399.8837837823973,-2.3018013630384644,-0.5332160182385906,-0.0701287823973189,38.66950654726681,-81.60403154354155,83.75722568506411,-1.9159401968019178,115.12990427791881,3.4778529756485748
245,-418.16234129922617,-414.8623502398391,409.7862379418345,-1.8411047007738262,-0.7515457601608659,1.0840100581655179,40.13375094678748,-79.99231371652108,86.73424281335457,-28.82170174908645,122.87912013630643,-5.367425587916185
246,-442.58854266288523,-439.2302527348615,401.3419365403336,-2.457231337114763,-0.4370782651384957,0.22486745966637045,40.80476457605472,-71.80096544963678,72.09850991075318,-3.348122384439876,125.56799979995408,-0.15443135690597232
247,-464.1503333307605,-463.625278116085,408.9558976102522,-2.0119396692395526,-0.9782348839150359,0.9719293897477428,40.88848618617916,-70.55147411837359,74.20261145237822,-23.913994276164182,123.4694544439067,-19.546768266973594
248,-485.6398874649801,-494.3919835226252,391.10988390994686,-2.681935535019875,-0.8306504773747747,-0.9231179099469387,39.70824225030606,-57.124138782654335,47.20851025883288,27.705272378867814,110.1747068973924,1.573887444870164
249,-510.95955984611095,-513.4172249860102,402.6675521688154,-2.586593153889055,-0.7466570139897613,0.2931298311846149,41.430613342210556,-57.440391997686426,51.644525228081186,-0.11822383216382394,123.36996793731477,-0.8662465997940496
250,-510.00862312605443,-517.5506632316532,347.9264251910393,-2.325295873945606,-1.260382768346858,0.23585180896071734,40.519614817367106,-59.05599442115938,62.65655804523593,-10.693805097968998,114.54927983009947,3.3687984552050256
251,-487.6849932402923,-488.9720358810838,338.6932499028339,-2.677466759707727,-0.45886011891622047,-0.36351690283396465,41.10900374862371,-58.083845645945935,57.78713400528841,13.04783229303471,122.80201161210763,12.648773317866654
252,-463.64358083780473,-471.0188789113568,341.051109991649,-2.419709162195261,-0.9046160886431949,-0.35653299164903274,39.25811753384385,-66.28274540167999,70.79989441824331,2.1516971824414086,109.51087166449534,11.251825114634343
253,-441.41293152463976,-443.000989930245,350.57293936322446,-1.9664924753601554,-1.1066860697550283,0.5129456367754983,39.75499190528717,-73.82781926288466,85.14144072146465,-24.095501285032526,116.67473282396233,-10.146300989713254
254,-417.8843282862411,-422.1057492834933,339.90224226658887,-2.3303257137588957,-0.7834967165067042,-0.631043266588847,38.34276551490743,-75.06359101910597,82.36970743825408,1.621501408707871,109.2357747616631,8.628059881278478
255,-395.42488813693024,-389.1408179601363,354.1115903795123,-1.7633428630696812,-0.7642510398636659,1.2219816204877247,40.06492961905227,-82.74583153855517,98.21760003802852,-38.00492632585311,125.53611224237875,-12.635546393348507
256,-373.136766029546,-367.70944125365,337.8216471082078,-2.4876979704540076,-0.04714074634995313,-0.36356310820781346,38.92015368595093,-81.62010089538273,89.8264707409458,6.147670381625237,120.48658945516051,15.187021125786735
257,-349.6434878265452,-343.1755369127171,353.54647337461756,-1.7750181734547255,-0.7633150872828764,1.0144706253824438,38.20460816985594,-92.13293112355308,107.5935290188817,-35.168192483195234,119.46118523308517,-17.219850449267863
258,-328.024435065418,-318.91848747982647,347.1880657958984,-2.1744159345819867,-0.30512852017352543,0.4370482041015862,37.75345557706772,-94.82250802319254,106.80515457430499,-17.890149621932082,120.69392339782952,-9.493794082064147
259,-304.84479778697585,-295.0581947077328,339.63731331082596,-2.4127592130241737,0.12383170773284746,-0.33834831082594974,36.60850677425419,-96.49773348355744,105.46610087314785,1.1963795067527203,118.51642692031362,10.326524788205885
260,-269.7012633333317,-323.3116250865078,342.45314090879805,-2.461937666668291,0.14810608650776658,0.14826709120194437,45.35907310951927,-95.99198016592436,105.95837700248714,-5.106586404637162,130.6917500353118,-6.2546993881460065
261,-287.314383140609,-355.2810871982141,335.12017737895525,-2.4513018593910374,-0.1451678017859308,-0.7918203789553218,43.852588682667566,-89.67774737461592,97.8824717890553,11.583626042695641,117.32048838797456,6.058702516355863
262,-306.5610088247973,-384.9495231098583,352.8359194897323,-1.59914917520274,-1.1364758901416963,0.726163510267611,43.65546384514603,-92.64309203721697,107.57885563418962,-31.898499145608994,111.90168188782432,-14.24146458190794
263,-328.9908452803328,-406.74622934924497,342.4892950107808,-2.4364797196672043,-0.3153646507550434,0.07012198921921708,46.30233160723323,-83.1831726472536,93.05447160648008,-5.420781866504693,125.63262170190804,3.9284320209481685
264,-349.43137534504683,-429.130390471357,345.6787427224901,-2.383418654953175,-0.19322052864299621,0.4173872775099312,47.89275365652724,-78.87360234473144,89.24204368912704,-13.618224316277834,135.38326543485496,-1.7484489832273231
265,-367.6977283607111,-463.266339471717,339.3612525317658,-2.4969636392888788,-0.6361185282830206,-0.4203695317658571,46.35552191896498,-73.56611625185892,80.29866253526917,4.107986002536681,119.32582753194619,13.386108142112688
266,-385.8035354044568,-490.9836297732476,354.9330315952277,-1.5730265955431832,-1.4278822267523879,0.8286954047723043,46.22457754999101,-74.94183724999277,88.99617748394489,-35.99163381914605,115.08965807947439,-11.062168098556528
267,-408.8345927755772,-511.4080143620968,341.1260897026277,-2.6501912244227697,-0.3633216379031978,-0.1126347026277017,48.41456334961705,-63.11508399698615,66.24107011826204,5.128535753800666,131.79091914985685,1.6841956770545896
268,-429.1035077456315,-534.8341258714527,344.8054946192925,-2.6138792543684417,-0.32634712854735426,0.32479738070748,49.298449231675406,-59.20619515286481,61.574738867112124,-3.38854391377413,139.13623403361217,6.248620939109106
269,-447.00927026406964,-568.8950812788252,336.3691648496861,-2.796683735930344,-0.7289147211748741,-0.6920108496861417,47.99682858994869,-50.62800633495084,45.049458860607736,23.5398530146611,122.35712430614589,15.678302726429779
270,-448.1667006057108,-564.8683734516384,406.340009142379,-2.363001394289199,-0.8529835483616353,0.6880838576209385,48.84489020717997,-58.6659338325226,55.453937911018116,-12.596837387587852,131.34751469899535,-20.074235705397207
271,-427.3813089473179,-542.5385081564144,406.5772882090796,-2.1160520526821074,-1.140507843585624,0.7216907909203201,47.686398055315564,-64.95393470888203,64.96882175690553,-14.495384803119753,121.94991608825698,-12.075851054007973
272,-408.0299982030595,-514.0477271445355,394.10425933950125,-2.6938627969404934,-0.5090658554644278,-0.3274663395012567,47.781819508750225,-62.32364268570208,56.16857577539781,19.677826713648887,125.57619908374048,0.5708815443353821
273,-387.96259987606817,-490.2483154699563,399.44966942913817,-2.480436123931838,-0.7758205300436884,-0.011523429138151187,46.824479320834016,-71.5402550322413,70.9984788831693,1.7162272608993043,119.98870570746493,7.3261967355850475
274,-368.03243029185467,-459.6796085840487,392.52559538460116,-2.6578917081452573,-0.24745841595131424,-0.5690923846011628,47.18380317577187,-71.29607887088424,68.60990732563681,20.039443308358578,126.06188288782127,5.568534442457816
275,-347.5683142948625,-430.8824601947577,410.2775982564711,-1.8214177051374918,-0.6389508052423025,1.1937827435289137,47.06929687828146,-84.18457661200692,92.02951534783861,-32.81853216761469,128.25563460693638,-14.132490629782808
276,-328.6692147412067,-405.017378150494,406.3204882540083,-2.15378425879328,-0.44340484950600967,0.7911287459916707,46.63960898074104,-87.39785358832494,93.13005136525202,-20.764486817955977,128.1770065189227,-0.10291577462184401
277,-309.4511957895114,-377.9564174907535,400.7559647334677,-2.4848472104885673,-0.10184750924651098,0.22554626653231935,46.357631483109145,-89.29954353955777,92.45955160479748,-4.973998227609374,129.6127271130155,3.1700671652044115
278,-288.063534893797,-356.7930286473196,404.249449795359,-2.0968801062030025,-0.627379352680407,0.49999220464098926,43.60722821711875,-96.98235958153198,101.19791814971647,-12.980403038045715,115.89577691762209,-6.256218534880212
279,-269.07831267952696,-327.7759211167089,400.287873399777,-2.345481320473027,-0.17653088329109323,0.1764096002229394,43.68438037110055,-99.39346584475739,101.53693252828481,-2.7627198518661427,120.77117398620105,4.085255371402928
280,-229.20954011194868,-352.9348829283765,391.9234427563283,-2.499946888051312,0.010141928376526721,-0.4784307563283505,51.479250283818644,-93.71423494951988,94.0768072836398,18.758134844045454,127.30886163093088,9.701309606290327
281,-246.10395989467472,-384.6526325721489,402.56045648805974,-2.1107981053251876,-0.635324427851117,0.37339051194027206,51.59039331412425,-95.43246264559791,99.08036785617213,-9.351786687921752,123.79359019663123,-6.428548028699993
282,-263.9588371474456,-408.3589841895449,397.6929582899922,-2.4868328525544143,-0.06051481045500395,0.03935571000778282,53.835644960913235,-86.62317211166534,88.56309615015614,4.1920442746406,135.8371527862304,9.172282716569
283,-279.5656197346169,-441.85111025963107,402.9591666460159,-2.1646792653830857,-0.7902347403689305,0.3881643539841093,53.046554486115795,-86.23708899915772,90.21398814702094,-10.771351556934656,126.21027147113774,-1.6986325154863684
284,-297.18108311834953,-463.4921795771454,405.2222562125156,-2.1106738816504844,-0.36209042285457826,0.7717467874844033,55.14739991697671,-81.16100433292529,85.82290149287097,-20.216968219445587,141.08283930757403,-15.308570107767732
285,-312.63979288305273,-494.0029788817536,409.5673808139275,-1.7610891169472325,-0.764933118246347,1.0921451860724574,54.88987353784317,-78.94099986602068,85.78740125089232,-32.959038327548,135.47646365608512,-22.684021404725236
286,-330.9721708074933,-520.9245859772333,399.8987353490925,-2.469847192506734,-0.2093390227666987,0.32770265090744033,55.88830272925929,-68.19147181430657,66.57216601365037,1.9337163959336798,143.46716131910148,-4.426770471492174
287,-347.399463263605,-552.5054484845125,399.4403962695192,-2.5459107363949443,-0.5486215154875254,0.14996473048068992,55.67219859763263,-63.76913254198243,60.024563957252795,5.296610526947407,138.2045530030372,-4.414852839876022
288,-362.3334505360048,-587.8510392087808,396.8811811152086,-2.5264154639951357,-1.0887827912192733,-0.3579431152086272,54.6189224135984,-59.024311537606145,51.90946437471773,14.127927069174802,124.5127480585808,12.542619082635523
289,-380.56537038762224,-608.4669584202593,395.3417448097033,-2.7577376123776958,-0.43290757974068583,-0.16943980970330585,56.319381651076725,-46.16827706224446,30.123854836425025,29.945188827170366,141.28247098298988,9.723062539682195
290,-379.26662356555477,-606.3728256217227,354.6640680553586,-1.7604494344452064,-0.8477193782773611,1.1783449446414238,56.33809106409496,-59.301519858614704,67.67256835014716,-40.37662171186885,141.53708750079605,-21.543954756811328
291,-364.1449750793574,-578.6190329271565,341.27695782363736,-2.665232920642552,-0.2694580728435767,0.10145717636265772,56.30523843576281,-55.42733573522507,54.41977135834181,10.907503345419057,143.53731323732097,-0.24792589363006096
292,-346.6689913792179,-548.7740383134966,352.2403193985002,-1.9234506207820914,-0.5308256865033627,1.1945126014997527,56.06158336979348,-67.62313914736009,78.26913286532587,-35.291495308242666,142.91025766738508,-12.001537313702931
293,-329.5112932916678,-526.1002634874949,337.51421587170586,-2.58238170833215,-0.4566175125050904,-0.37371787170593507,54.7283299275134,-65.7378117794853,69.16751769869123,13.80797732439115,131.02712394636598,10.813026930243076
294,-313.9925306698605,-492.0115154599477,348.8508559080148,-2.139298330139468,-0.41636754005230614,0.6963570919851918,55.55436462260946,-75.11945506357932,86.17312302473056,-24.53261663063541,142.4233502688423,-6.960244742490793
295,-296.8712307062545,-467.9260885028487,340.9613812783981,-2.4751932937455194,-0.40511849715130666,-0.13416327839814812,54.248130807534565,-76.81473066788759,84.99497625594597,0.5985741439455885,132.59258855455928,11.122951213669214
296,-277.9311121098384,-442.1670208728227,354.2959123710532,-1.4818768901615726,-1.1871271271772912,0.9921886289467352,52.5195470049003,-87.48783424354109,103.44695038206581,-38.05986245221799,122.36518224946678,-16.41656792822385
297,-262.99066664561235,-412.6131102611663,341.3240469197663,-2.37658435438766,-0.512669738833722,-0.07541091976634107,52.57818292757333,-86.97808309196161,96.81641803597097,-2.651782652225872,126.42664283767664,2.074135446280861
298,-247.42585322948509,-375.23302002906576,348.3006664206393,-2.2003777705148195,0.033480029065742656,0.8374775793607228,54.34077288276359,-92.51686782341432,105.34722979129913,-24.99103511585409,143.80644070866273,-8.585685191539984
299,-230.1913128056364,-350.24642863590833,350.3408573913008,-2.0234301943636126,-0.34413236409159254,0.794002608699202,52.575906189042634,-99.11579362120473,112.2063251331074,-28.49919621601748,134.28578901372134,-15.222300796471837
300,-229.745712573602,-348.2204070793331,297.42795174619516,-1.6936314263980137,-0.47191992066683497,1.1368812538048019,52.962492558254056,-96.9552496584375,120.7557779225242,-47.59907597903623,136.95101008637778,-24.719091032619573
301,-245.7930641114427,-377.2814491793245,299.31183764727956,-1.4927618885572826,-0.6915848206754731,1.358244352720419,53.334105156929596,-92.58997149355152,118.20904246660544,-54.36711501595289,135.64754940134392,-26.190212019739
302,-262.0235663344937,-412.7031751719794,296.9282541194338,-1.5726446655062318,-1.0395918280206047,0.8499828805661878,52.26382758511148,-88.84158019035318,112.39475747386737,-41.84028431480631,124.2603746158015,-1.547503549392579
303,-279.977261251093,-433.6102607103909,296.7633241919782,-1.7419037489069638,-0.5593772896091309,1.109628808021796,54.83611237694834,-82.86365985664158,106.36944959006763,-47.42580343677717,141.20894159168915,-20.651692993253167
304,-296.47065278048416,-468.0327823504765,282.9839476484575,-2.5022402195158406,-0.4011116495235001,-0.31293764845747774,54.12302147148263,-74.13172847987344,89.196332580347,-0.329245988254666,131.50636448202843,2.9038339497279884
305,-312.5372789786457,-492.1964098871656,299.18601867760793,-1.4973690213543023,-0.921777112834377,1.2731143223920753,55.17093609889236,-74.97543825706015,98.4341630407922,-53.412517726685564,138.29769717979715,-26.049920935437896
306,-329.5618136764183,-519.298134893197,298.2161937017425,-1.6762143235816325,-0.7121501068029374,1.206643298257518,55.81826585086716,-70.34609291995405,91.74937512571505,-51.11297757059875,142.6200938036666,-29.160163259966097
307,-345.773554086032,-556.2062826574315,296.24662200173407,-1.67687991396798,-1.2231033425684927,0.8830259982658504,54.757251771841695,-66.81389912189891,84.68563965922748,-35.5365491005357,128.54079261736535,-12.313369257216198
308,-363.5327909829573,-578.6411384747324,295.76830849793527,-2.00903901704271,-0.7577635252675918,0.9517515020647238,56.17680289953749,-61.1401589077625,76.28763315030189,-36.18938569829416,141.82503436676467,-7.058248048500315
309,-379.4554783509483,-614.2862278608773,283.5714659245693,-2.5834836490516864,-0.8902511391227108,-0.3829589245693228,55.32740967638701,-51.39992603276108,55.214037047057325,8.992386524726912,129.29959606400536,4.126132734718788
310,-379.48028980067227,-612.3127898501042,240.7335630924805,-1.7591221993277486,-1.3330691498957776,0.7992889075194967,55.59900156726892,-55.33416781194068,75.54891065661843,-39.05761840150911,132.34334812477186,-22.38158584028719
311,-362.44750955690955,-587.8704974828669,231.6933517844626,-2.222784443090461,-1.1860285171330816,-0.07131178446260833,54.639773209462064,-57.615835887829995,74.81883946545067,-13.512871407071406,124.71707562087322,1.8712935323751174
312,-346.32155388324,-557.5065143074103,232.9340272958896,-2.151164116759958,-1.0056156925896858,0.10215770411031144,54.67583826257752,-62.07209683561166,82.31558961929471,-19.310097454749215,127.74754806606293,6.752080652122554
313,-329.218857650436,-527.3920138958485,240.1729371737075,-1.6482913495639195,-1.2563281041514074,0.8956288262924943,54.44865424573098,-68.05199645357277,94.94840801204322,-43.24518240223469,128.38835780538176,-18.77624524371597
314,-313.0038110940062,-499.32425056385074,230.6676206557529,-2.272396905993787,-0.7788024361493058,0.03910634424710224,54.04891178143322,-69.60775192492044,92.5841526577309,-16.731942971801026,127.76130591320731,11.448318818249486
315,-297.532877278063,-464.5854264892959,232.3541116046324,-2.4214197219370135,-0.39117851070409415,0.4281703953676015,55.04059172233064,-72.61427481323652,97.3877171097959,-21.956821541589743,139.99771275791204,5.347168519616167
316,-279.8767037069032,-439.6023605698664,228.3374376056359,-2.418977293096816,-0.48118843013361356,-0.02406460563591395,53.605959983778796,-76.50181847294166,101.12217721653491,-12.381470266634807,130.5161837380706,17.655144513338428
317,-263.14117818096327,-410.4416232530063,227.60207744184368,-2.4108518190367363,-0.38561874699365717,-0.1250634418436789,53.12282051834859,-80.39769945955024,105.74438907626987,-11.310082465233068,130.3364055924634,10.52071525949449
318,-246.3712671520451,-384.14395884859147,233.1729580047034,-2.0246848479548873,-0.8099491514085457,0.20306599529661185,51.81153878942701,-87.75462303178061,115.9808862828697,-27.86355506408424,125.1915890127361,-5.312018691143476
319,-229.1804351201208,-354.8287069947882,239.548661014521,-1.6328318798792054,-0.9900030052118041,0.8167569854790031,50.92392412856263,-93.87569870496439,125.31649082690437,-45.44023626686761,124.02548701600665,-12.35746980209473
320,-267.7429244659287,-328.55907387566856,225.1154127328549,-2.344212534071289,-0.28614212433143393,-0.5279227328549041,42.98576663890654,-90.34174751174578,115.81790019116794,-8.174912264127798,116.95212976861015,11.85888239261518
321,-289.6358932846378,-349.9628863426868,231.7297056935329,-2.3693787153621884,-0.22261665731321045,0.2113683064670795,46.11309301053865,-86.31952144956709,113.85883378833945,-23.569996322902547,131.64277934045032,1.1193132713123901
322,-308.2495800242477,-376.5005529872168,242.36377765931312,-1.605422975752333,-0.8676080127831938,1.1727443406867906,46.408427890502615,-84.44550560172028,117.74407805483092,-55.64383665736707,129.98486513182482,-18.405494052792264
323,-329.3414930089972,-404.0607355944994,230.9474603287752,-2.3930069910027782,-0.33495640550057715,0.16753067122479592,47.040094921293935,-77.51470900169834,103.25962589780566,-19.862945149928446,131.32164919711434,-3.5830808304666393
324,-348.40462936634844,-435.23893380900455,236.5642314532956,-1.9535356336515406,-1.09471519099543,0.5396665467042965,46.29204105132993,-76.15794365336284,104.00432172455228,-34.915864362988714,122.13086299148742,-9.686030243600062
325,-367.75040030861726,-463.6755611011394,229.4044274770086,-2.2501766913827623,-0.8692328988605595,-0.20781847700860112,46.279838348845544,-70.33099420787066,93.13549981123914,-14.494012913147271,118.73430044648622,8.307205687914417
326,-386.5142818164652,-491.4524911854889,225.51812488638078,-2.321167183534783,-0.7526728145110724,-0.6210688863808684,46.27938435504619,-64.91212272747826,84.14163249266018,-3.006400345687902,115.52825219046734,13.356043138933762
327,-407.3835834045297,-516.0781377063835,226.6796691670626,-2.4622435954702837,-0.7402242936165067,-0.4811241670626032,47.28295535554395,-60.31986413413194,77.49921785413048,-2.677284391909075,121.00586178226159,10.584020258750941
328,-427.84429486635275,-543.4298885565572,234.4541573895041,-2.145693133647228,-1.2167254434427832,0.12987461049590365,47.62032250691145,-59.04435460336248,78.21257417570989,-21.593985294779063,121.3242610757826,-7.100330637010954
329,-448.9583580630951,-562.7103900719811,234.66124579501098,-2.4908229369048627,-0.5386499280189128,0.4397482049889163,49.32274633870302,-52.65583112968481,67.85774685186603,-18.803068754313315,137.00105153329173,1.912402637789872
330,-447.4240315485574,-568.1501674010135,184.95178739459,-1.7722714514425775,-1.4050035989864682,0.8532036054099876,48.19106100606117,-52.9167654353945,80.0196081038881,-43.376422534088995,124.32647114171075,-3.1358906738658625
331,-427.0114354856927,-542.9536900003013,185.40272132647638,-1.5656065143073192,-1.54099599969868,0.7634626735235202,47.54515649630146,-57.23710838217357,87.62150097001943,-46.99181916064653,120.61770876367675,-7.648819502284611
332,-407.6016401765359,-515.748512826163,171.7192378269678,-2.423152823464079,-0.7641291738369773,-0.3614618269677976,47.386865289088604,-57.744653107978785,82.24935846694551,-11.189973082160812,121.93828968670094,7.318049020625816
333,-388.2784570011698,-485.76669025013393,184.2443517413079,-1.7602499988302043,-1.1833487498660702,0.9291432586921076,47.763742267642805,-64.19813545999111,98.31628748319247,-49.51561424964666,128.21967210559706,-15.73622530796626
334,-368.3398963231036,-460.7186653223377,172.70073383907268,-2.4018526768964534,-0.6837686776622718,-0.07550583907269015,47.036746638519666,-65.78192665336115,95.22949217081334,-17.939225035388677,124.82633020728814,2.3186327235290602
335,-348.8778883086856,-432.9562109685109,174.51426830901852,-2.384263691314402,-0.6372750314890823,0.15833969098147804,46.92091782211183,-70.0396465521049,102.14190286949157,-24.52272765270327,127.04855188731743,-0.92397080072738
336,-328.98308366977955,-405.8805870897803,174.1189508059596,-2.361640330220439,-0.5207549102196936,0.11070219404041381,46.51120477424386,-73.82001369099771,107.28872509826614,-24.947691537635524,127.1980454203187,10.937099752872342
337,-309.6677901996804,-374.9353454805756,177.668216303115,-2.287291800319622,-0.3063515194243678,0.4819416968850021,47.197358456307946,-77.65377818244978,113.86078644398236,-35.91514768951131,136.06727660937113,4.3205788768984945
338,-289.68664685798063,-348.86037482862133,175.9177282903788,-2.372239142019282,-0.21581117137867523,0.36928070962119364,46.441567182858584,-81.4543704710887,117.80474312746976,-31.567051977140657,133.98271959707128,5.470051281680242
339,-269.8317785432141,-321.493828635461,179.0213032631863,-2.2246994567858565,-0.3547113645390141,0.6277997368136994,45.97615453731067,-86.45939504332632,125.01203137261697,-41.78995371880352,134.73806471283623,-2.2818135805155055
340,-302.4706177861874,-301.39768692885957,186.101953286177,-1.1445082138125144,-1.6531770711404192,0.7297507138229662,33.46764533396774,-90.08728574299376,133.09814033862193,-58.97547041035364,102.50222499433684,-7.991560110134638
341,-327.2125816114274,-314.68110154910613,186.1585968876678,-1.6144853885725752,-0.9285764508937859,1.1876781123320939,38.9345186900335,-83.40823628957128,126.31113440122691,-63.01287342915986,128.1587032488795,-19.07481645608319
342,-350.8575068586592,-344.302767178097,177.2253596322565,-2.0453171413408313,-0.7841748219030364,0.3098953677435077,38.151934819767824,-79.64920137529276,116.17458824282988,-35.35654562876496,119.1224665354761,9.598164119976886
343,-372.8251646630037,-368.7351836613098,185.0692712542951,-1.5338683369963064,-1.3495143386901987,0.9076567457047986,38.56461712378055,-76.41842498183502,116.52934316628266,-55.5656657458305,118.03483040332675,-5.86648210989251
344,-396.6291719111179,-392.5211505628506,179.0130481250853,-2.0267410888820905,-1.0002974371494133,0.3745828749146938,39.46462538157639,-71.86675934731407,106.70863743089367,-37.504087306238496,120.9184779565897,-9.370865463707782
345,-418.3229640041461,-418.127903126834,185.4028475045807,-1.5268609958538946,-1.5084198731660194,0.9381954954193077,39.394395992869825,-68.8801842065593,106.08779194472449,-53.23905232302946,117.04324760198041,-10.557992118918905
346,-441.4930677492675,-445.1145521781524,178.5050703584217,-1.9391642507325173,-1.294501821847632,0.2813426415783056,39.29444330647404,-64.7408485868303,95.9326804487501,-32.652328175405174,113.00297448840408,1.7866660039527036
347,-464.0914564433344,-460.48904002642,187.3893889959092,-1.714190556665585,-1.1915489735799838,1.1526260040907061,41.50887283631699,-60.42587019256041,94.52575511377033,-57.7477540958282,129.37809047537183,-25.152571177639345
348,-487.4518526850149,-492.8122317035034,178.8724432167709,-2.018327314985072,-1.2997542964965874,0.168392783229109,40.32232731907437,-56.66264982410809,83.13746408687125,-28.717686216196658,115.53854121818131,-1.103823574006642
349,-510.2685118411906,-516.5800634488807,174.3146003997814,-2.2724881588094377,-1.0788745511193838,-0.38807739978139466,40.74097588625357,-50.90782017490806,71.54151185552811,-13.454820032166603,116.62528995925368,7.31839570932002
350,-509.93500758060674,-517.8841305533903,236.6160809402606,-2.060780419393268,-1.4393274466096955,0.33063805973941385,40.44582834846332,-55.99540744317025,74.26100078842342,-24.915095111123996,113.86520349932634,-12.12216989136394
351,-487.83948891625676,-487.9732757999904,227.7809721794714,-2.558262083743216,-0.48420320000951733,-0.2950021794713962,41.32636542314596,-55.73394070456568,70.5103982401219,-2.1602938965934833,124.91281585122228,-0.24009970111711704
352,-464.98324721844693,-465.8475360912865,229.8336072556993,-2.4147217815529984,-0.7418089087134945,-0.0923212556992894,40.580193085022174,-61.77736498759386,80.71007596666423,-11.389512382218026,120.68424560052912,7.847031629824614
353,-440.3924666848012,-442.9281038011127,243.233873826427,-1.4596453151987134,-1.4968011988872831,1.1258861735729226,39.58246482046955,-69.33742093624046,98.52820935511359,-49.87485414992177,115.28593430579151,0.4200738846432524
354,-418.1215700284586,-415.4867766783044,243.0501008080082,-1.5128129715413934,-1.31192632169558,1.1108681919917842,39.979846217628804,-72.85207982359807,103.47586290372357,-52.22509790001914,121.63433388145043,-9.96857981283372
355,-395.8243300361892,-395.3860193088536,237.2943898939425,-1.802554963810735,-1.1981046911463977,0.524251106057477,38.55341621313056,-77.00369101670199,105.44798225109905,-36.50417320458629,114.30993121337697,-3.5713775039527853
356,-371.9510265838769,-373.7583260912063,238.6609883319131,-1.5772994161230258,-1.4012979087937083,0.5593676680868782,36.93334681051491,-81.91670791156584,112.18856073735319,-40.64782842675118,107.4055844878753,-6.45222361757147
357,-349.7164659201864,-341.8400620981279,242.6468747344988,-1.5446430798135111,-1.0127649018720604,1.1512812655011828,38.62444234361478,-85.17478248060141,118.52610483791021,-54.14877432207287,122.20517370891653,-2.6210586776973717
358,-328.1620203828055,-317.8028322776427,230.8560907824474,-2.2751866171944926,-0.23364272235727412,0.008434217552576229,38.16219445975172,-87.25556666598283,114.5111024164732,-21.775362698350676,123.20112306293562,2.3021469236716228
359,-304.79785174851946,-296.24033298149,237.1861390604563,-1.925863251480564,-0.7705350185099746,0.6292339395436954,36.14450503320827,-94.41830856984672,124.42110038259162,-37.95246094840928,116.02120128251433,2.6050690398685656
360,-335.5494421229505,-260.6100192590762,243.3398936140577,-1.5096378770494994,-1.0830577409238344,1.032960385942289,28.38277005153229,-95.42082181964695,128.95833453522042,-53.673446262028754,110.33578245222415,-10.872936471951405
361,-360.4034516979645,-285.84652843275285,243.2420257270526,-1.4365823020355037,-1.4428695672471008,0.9819322729473754,27.88177280459375,-91.27355747999172,124.98282290058032,-52.84036333114776,102.76173128679898,6.058174861600642
362,-387.8678018008576,-304.4394046466064,237.5799938508511,-1.8916991991424084,-0.9694783533935833,0.45161214914890024,30.28819406978387,-85.75621777713914,115.9730205544835,-38.695114454245854,111.69751489175714,-8.498980887756817
363,-412.275320839463,-331.2915650117772,230.63323589755728,-2.000036160536979,-1.0257899882227548,-0.24045089755730942,29.128978667641963,-80.89152206660319,107.24303472952536,-21.271123772680635,100.39567468522033,-3.783270911227306
364,-439.26175278210513,-346.62045346589707,231.3897835648487,-2.315825217894883,-0.6148795341028972,0.04245643515130837,31.964162773736327,-75.60270296926517,100.96000125097167,-21.3952473362602,114.85608343271012,8.251918195623752
365,-462.97313335460274,-373.98018548591136,239.0010705683365,-1.6935276453972392,-1.6015685140886262,0.5198344316634973,30.622566677215254,-73.99121315930729,102.379954060376,-39.15319655642921,101.79203132668071,-4.389220511140914
366,-490.5650252876404,-386.8262551007322,234.9103297364999,-2.2492987123595753,-0.6211158992677497,0.5362842635001073,33.66900983289213,-67.61086819367283,91.45779332713721,-27.26693809744478,121.48793497784555,6.116372312498102
367,-515.9082652428882,-410.3803073271535,231.1271887009641,-2.4390167571117445,-0.5995436728464938,-0.10777570096419709,33.53440348987301,-62.67126372838672,82.53470059095227,-15.267130886970817,117.36708808621503,0.9683701780446589
368,-539.926231268242,-435.3297560708944,241.0991005121273,-1.885844731758084,-1.529581929105575,0.6713194878726938,32.922828384066456,-61.4903574060603,85.36092484681299,-39.24943374345333,109.16084566118606,-11.890690596688193
369,-566.8124434329709,-454.1040366598876,230.41150901795902,-2.6170815670291177,-0.6934403401124314,-0.12791301795911636,34.025763357720635,-53.575195203261266,67.74225980239142,-8.139037160708146,116.1667860023352,4.973988760665288
370,-566.597582057812,-453.5843927801722,172.71040988742988,-2.596362942187966,-0.6532252198277888,-0.4698298874298814,34.101432722959444,-50.21896970281427,69.81903330257146,-9.039903706390858,116.88224862497547,14.63944501803995
371,-540.1478177087573,-434.98755873069,184.9780634825249,-1.7780422912426275,-1.5929722693099961,0.623107517475006,33.0285069496133,-57.95512692427985,88.46131872077457,-44.82236912365321,110.06288714404714,-11.168228103969003
372,-514.4769269681975,-414.1972438145982,184.9343816158146,-1.6962380318025225,-1.6302521854017868,0.7340673841854084,32.44183872481122,-61.91679603475636,94.91468608739228,-47.07102801274824,108.30328377863553,-0.9436796739366695
373,-488.332799655514,-396.2389169837537,172.7468627435768,-2.0330953444860143,-1.1362250162462146,-0.4359897435768971,30.990681002441193,-64.33338324539261,92.94373105497148,-19.105816444794137,100.63806417114802,11.14526204382866
374,-464.22857979026077,-371.3373949402527,179.3570588920096,-1.925991209739152,-1.2567070597472707,0.4308421079904008,31.542913165478144,-69.12109826348707,102.9276834713789,-36.88205955218833,108.2776286348164,7.689003908936863
375,-439.5004205231213,-344.60308113492886,178.350320322849,-2.167848476878703,-0.7346378650711358,0.36290767715090055,32.57656960298867,-71.91205766800054,106.44530770635905,-35.74645995517412,119.273246629295,-5.7098291959018965
376,-413.8659011694026,-324.2704382053298,176.5977741246966,-2.143032830597406,-0.6952347946701138,0.1294138753034133,31.63994512404054,-75.80260398072181,110.94688726627483,-32.710970425662815,116.29114125277924,0.49548225142439173
377,-385.3653509854488,-308.5549702187022,188.2695107969947,-1.1372730145512264,-1.9199907812978267,1.0631862030053014,28.374989697324015,-81.26406201341653,124.86884652297105,-63.74377452927841,100.58220224992296,-2.620307014936296
378,-362.4972087629273,-281.5516802401595,173.4230121282194,-2.1813122370726887,-0.40061975984048104,-0.09418212821941552,29.954762450338983,-83.4791095698484,119.13295003460044,-26.803524011387427,114.06946751457389,7.124059335950932
379,-334.9610569557559,-265.8861598683432,169.4501906286657,-1.9650710442440982,-0.6395551316567776,-0.7350476286656829,25.982868163693436,-88.27184481126476,122.93221553756615,-18.89694994598522,98.57140562766864,8.20855565872082
380,-364.6819023104051,-223.6878743830336,173.7196098306682,-2.121635689594882,-0.45695161696639275,-0.3466248306681905,20.20126305169159,-89.14710266809612,125.38195207861776,-28.519065586539316,102.8271312291297,2.961342261468979
381,-391.1396058660533,-244.5266931490199,169.2075421897192,-2.0555401339467494,-0.45989185098000007,-0.7611541897191785,20.203587754120072,-83.85190222911275,118.03394463315068,-17.991496968785107,97.4810503637082,8.031374743537755
382,-419.5759132702913,-265.0708829297656,180.1160770834868,-1.7267337297086556,-1.363571070234343,0.2274699165132006,20.59695336407751,-81.99201436057845,120.48740257651609,-42.83387025320095,94.36654700422173,2.0691531405130448
383,-447.1525264846822,-283.9156785661915,181.2714334998216,-1.63447451531772,-1.471859433808504,0.22528550017841553,21.411139724047718,-77.97325781855389,116.13661004286837,-44.650780951731576,94.08239078509187,0.8584596844924753
384,-476.42270882422,-296.3130206531095,177.5495247289437,-2.15553117577997,-0.8494573468905173,0.12266527105629166,24.35438195915581,-72.74101588738124,107.22505779941977,-34.03956387518649,108.35150431534966,8.35358221922383
385,-503.0553625152777,-316.7705854427928,170.3517554913935,-2.286476484722243,-0.5902295572071807,-0.47394049139350614,24.19902040339869,-67.39356274424105,96.76177326962794,-15.107141251161552,103.48529988188511,-2.0085728645887784
386,-530.6932663101968,-337.4641214052663,171.7438764480132,-2.2225976898032513,-0.8452025947336779,-0.615454448013196,24.12149310769035,-64.13454494795046,92.28898522197538,-16.783790401173487,99.15816120514724,3.611699487353037
387,-559.9571474993028,-349.86254168798956,174.9391724189191,-2.451952500697189,-0.6080803120104292,-0.16987041891911758,26.3276426950071,-59.95458952638881,86.8838486091987,-21.228362157041147,112.8084453117027,3.1659334450574614
388,-586.2043117714321,-375.073401244157,172.1787334050123,-2.261220228567936,-1.0361487558429872,-0.741226405012327,24.924064830807232,-56.1197561202055,79.61537759464026,-12.982950985045996,98.14110903121573,-8.473029808746176
389,-615.4776930680526,-388.7468771430236,180.1628911841953,-2.307978931947332,-1.0854228569763222,0.28097681580470635,26.565831172269988,-53.34750130693425,78.13182050824119,-29.449029989265355,108.9022627996995,7.643368131422799
390,-614.3634391025502,-394.0126406176771,231.9506458878339,-2.368840897449786,-1.1488313823228964,-0.32113388783389496,25.27303536515291,-55.76828619157735,71.91273490985428,-13.564890479622775,97.68044203246261,8.638760728999673
391,-586.0049231332697,-376.7421644403363,236.6535436814727,-2.01202786673025,-1.5369425596637143,-0.011497681472718568,24.503394015403487,-61.56866859508912,83.16432518997789,-27.765304512876412,94.7501734210343,0.6177579944990648
392,-559.3267697683781,-352.9307670623193,238.4131050345702,-2.1284542316219586,-1.1581239376806707,0.569247965429696,25.490156024943534,-65.46786173284407,89.98524480398572,-34.333770915317885,106.02825294593286,-0.49185490320070513
393,-532.0674167804281,-332.63060464164766,235.6483059895251,-2.2030342195719186,-0.8239883583522669,0.3540840104747929,25.587405537265024,-68.80872517949557,93.51911858748831,-29.271322351219744,110.09889073625224,4.806351955301838
394,-502.78310689910154,-316.1599160024594,242.1308572358581,-1.77887010089853,-1.3920619975406225,0.7685317641418976,24.339136207337894,-74.04357636805813,104.25899501364208,-47.25814408776242,104.46736561640911,-1.0760266118084358
395,-475.49244102333785,-300.72928716465333,236.2334880032487,-1.9864669766621432,-1.1096708353466624,0.19777999675127944,22.84721654211996,-77.9691518815589,106.11895970053487,-33.57687173962264,98.44375165420045,-1.4268904110537943
396,-447.9951007331221,-281.1379815504795,235.5952402211853,-2.022827266877812,-0.9339934495204716,0.20465277881470456,22.486537697068247,-81.97885207811875,110.68009991998342,-32.95751883486789,100.54250126613888,-2.9130125437034775
397,-418.0912419914065,-267.473837198551,226.6900728567328,-1.9650450085935063,-0.7552728014489958,-0.8880548567327935,19.469015083929122,-84.72927891416191,110.25583211575807,-13.145523089908838,88.13788281129561,8.838046595406416
398,-392.45486708010156,-237.8020704216537,239.34344282369167,-2.0146279198984303,-0.5343345783463178,0.8225351763083211,23.14669651351215,-90.29298087478267,121.68968665607764,-43.580071417675875,113.2693393014866,1.9065344973665068
399,-363.4921595875125,-219.8369318812782,243.4665770045753,-1.750574412487424,-0.7937701187218238,1.1697879954246844,21.733239088782007,-95.40739006889626,129.03341785069208,-54.040178968795004,110.42281547444789,-3.591642166678632
400,-386.5896457642849,-189.79529408445538,235.8770976446681,-1.673045235715108,-1.244609915544629,-0.22459064466809764,8.503062683682721,-96.94696059000275,125.95764818069539,-33.803943306971874,79.11409609313084,-0.1613635132224295
401,-416.4446402091958,-194.3074327136255,243.7307700967751,-1.744883790804181,-1.0700282863745088,1.0665689032248906,14.833720685319914,-91.13627184181361,125.18679922509565,-54.298563103193274,104.27351547065835,3.3841979303040697
402,-447.5366207975772,-208.54224006750448,238.76042047787018,-2.0476252024228074,-0.6381149324954265,0.5058105221298206,16.276603381819818,-86.23039501541157,117.11826182478868,-41.47559399083265,107.6748253593731,-1.1446390150199812
403,-476.1141972736213,-224.8089515437289,243.45592292017758,-1.7869797263787177,-1.2023994562710811,0.9699020798224183,16.521290855127038,-82.26857532257486,115.4779837691441,-52.95233212283452,104.83863002373451,-12.136304708437384
404,-507.5701039739494,-240.5878759713658,232.5611375608147,-2.328488026050593,-0.5330690286342019,-0.059860560814797736,17.169759093166807,-76.81562781110019,102.99362986330053,-24.701024409382747,104.89349652833715,-7.158603515128905
405,-535.7773988539241,-260.2437831803992,225.4344977537176,-2.3012141460759494,-0.5471278196008029,-0.9427297537176003,16.254468956057064,-71.06343435161726,92.82699765443753,-6.950922822508572,94.69554678805785,-7.818737217384922
406,-564.8329516525786,-278.6383709610435,240.57185663675,-1.7974733474213735,-1.755011038956411,0.3325813632500001,15.886538197898314,-70.63006617017673,98.61267630248298,-41.49548403712294,87.85917584226446,-0.5900977049059659
407,-596.3818195668061,-290.21935356611226,233.7810895833059,-2.2756214331938054,-0.9629104338876573,-0.15971458330591304,17.593201280830673,-65.09348860727188,87.25100794658024,-22.990414967284057,96.4693289038489,8.819414913134636
408,-624.5869109365551,-309.7043408425638,237.7348838957476,-1.9790040634449042,-1.7055621574361908,-0.04843889574760851,16.851017812689093,-62.02334001662925,84.38734596526085,-30.539087927357038,86.863911744473,-4.755561575003537
409,-655.1400136542788,-322.09269724417226,228.63535416916838,-2.5256993457211365,-0.9122997558277461,-0.8616661691683873,18.054451283032307,-54.76963955743885,69.09388974407648,-5.595450050986763,93.01425759390469,-7.07027126767644
410,-654.7426339823367,-320.5957779714934,169.5957311565392,-2.5427070176633606,-0.6642740285064974,-1.1127001565391765,18.376828810336328,-50.88558999378482,69.96840731575875,-3.700144759779813,95.73463332454428,3.295994309091629
411,-625.3546239603561,-308.10927413857297,180.1193360246943,-2.023802039643897,-1.600991861427019,-0.14548602469429284,17.313492458766646,-58.37863449386628,86.5540556110247,-32.507541182797965,90.55945236268495,-8.44126747873806
412,-596.0822106352263,-288.83807128247366,183.5177659458723,-2.06206536477373,-1.4238267175262536,0.5405630541276878,17.93488783533288,-62.345948444951546,94.74783143133227,-43.20977382145769,99.09142978726797,-7.780702103397593
413,-566.3288235065809,-276.41624038104925,178.8220102775778,-2.0360504934191113,-1.3408936189507585,0.08544272242221496,16.64909731995286,-65.99245126135959,97.99616097746393,-33.93734403272461,93.32964998020346,8.718890935998264
414,-535.5240155953398,-261.07933948647076,185.93993335217579,-1.689511404660152,-1.8255985135292008,0.656858647824123,15.976517482456877,-70.23126405036791,108.28609653051923,-53.33931759314257,92.80997848787051,-8.714282779974292
415,-504.86914859356546,-247.1624320609008,187.8376404280635,-1.4246764064345143,-2.0665799390991992,0.7569515719364972,14.756401502355754,-73.99914768283507,114.96876658588894,-59.90683443612671,89.36027979413275,6.956240457843255
416,-476.47656703483085,-230.4870759253729,171.12854686330408,-2.0373129651690647,-0.802200074627109,-0.7455408633040861,14.541685689651965,-76.33912383031881,109.4643210015839,-20.723656856245203,92.87477092274706,-2.7379792688388322
417,-447.28424529047675,-216.1869565383753,177.5184432869162,-1.8637877095232511,-1.2726204616246832,-0.06842928691622774,13.266155317574311,-81.90684322011012,119.06110260282918,-36.6749034796202,90.69428214536742,-7.376298132159998
418,-416.9874141341907,-201.1376798792745,172.1377282435999,-1.9291098658092096,-0.8445091207255189,-0.6819552435999015,11.948749028296437,-85.21291632550773,120.56305320537419,-24.86683144838889,89.34359880510584,-1.4702077883657032
419,-387.0238573936764,-180.00141550830452,187.0694749239428,-1.6642446063235639,-1.2478404916954844,0.8941120760571835,13.325335459514262,-89.99853130037582,133.70543460786627,-61.53838902769042,101.81383741541643,1.4520078035833055
420,-388.03581773580845,-183.307763019383,118.85397942221459,-1.830167264191573,-1.0356659806168977,-0.29220842221459975,11.844593153626128,-83.5970652962812,130.4846947390858,-40.628325777080256,94.75530885727977,-2.340871522581943
421,-417.3769941189018,-199.8233397992158,117.2972472335677,-1.9012318810981697,-1.053511200784186,-0.36135423356770957,12.56281635339298,-79.4597541036515,124.66093436911478,-36.05124313893167,92.47587360131566,6.201465430993564
422,-446.6517450658718,-213.40264364351742,130.45396897985432,-1.6006929341281761,-1.8906033564825577,0.8753400201456714,14.303740448688789,-75.0916084199654,126.91806883386504,-67.32584222660577,96.4428940937376,-2.975295516482452
423,-477.6562651159794,-227.156723396232,123.73748167375979,-1.9187098840205863,-1.2172476037680156,0.21866232624010706,15.850528146997583,-71.96257420667416,117.64172737753906,-48.5307349122422,100.7287972538,7.340178610283833
424,-505.5056001541073,-247.3388412849073,114.34612236837769,-1.904528845892628,-1.0930327150927042,-0.6868693683776854,14.75350871381527,-67.59807278325685,106.71977849078591,-24.402361323985172,89.34180810195531,6.040829324268442
425,-535.8178796971475,-264.07131753066085,122.3237946757218,-1.69627830285242,-1.8250674693391602,-0.060978675721798936,15.078977901311617,-65.2728607163106,106.53305948098904,-41.44823376987761,86.7438180407318,-1.864275733923923
426,-564.5488232149398,-278.8738172089017,130.2306871492482,-1.455421785060139,-2.2885977910983115,0.5294068507517693,15.795782889848688,-61.663898477128136,105.35060822777777,-58.67635330535978,87.20871192692512,-4.130631650136849
427,-595.7101650397212,-287.1652276366291,130.4565586822718,-1.9321509602788183,-1.6207903633708725,0.7486703177281981,18.344190659462065,-57.682783123275,98.61081903167846,-56.70091459757011,102.26176842325607,-0.5412709711123717
428,-626.338853426106,-300.7663713980532,127.0366173008596,-2.2187225738940697,-1.2320556019467972,0.39273769914039747,19.2251919916759,-53.96177828203618,89.87330881411143,-45.21328481050596,106.08920611981056,-12.703824077146086
429,-655.2763333929097,-322.85767636206367,123.3448543668965,-2.081623607090364,-1.6760976379363228,-0.3050583668966027,17.883548795940108,-50.45330459961293,81.64377283170637,-33.266611526532536,91.57617764994887,2.2298779392344446
430,-656.2034697943368,-317.6841806302806,63.7507807202352,-2.3860232056631503,-1.0139193697194173,-0.45978872023519557,19.176372400033532,-45.147056421946175,79.60277359131237,-28.925678410560824,102.5615598056106,-2.579731326946383
