pauljac7700/serial_robots_datasets/WAM/3D_WAM_uncalibrated_grid_cleaned.csv
step_order,x_t,y_t,z_t,x_dif,y_dif,z_dif,joint_1,joint_2,joint_3,joint_4,joint_5,joint_6,joint_7
0,562.9645010692388,-307.5297314450389,0.38066518057890003,8.896541930761146,-1.663460554961091,4.139234819421,111.07183339675662,-87.88505797672745,-92.92021933092937,120.68378419677362,-2.17480483734672,-61.64260512855344,0.39795465480587533
1,596.3168861674352,-308.2994886007218,-5.4773740659845,8.608933832564844,0.906769600721816,2.9026140659846,111.42082703179939,-83.94374410019687,-97.49494486817484,109.50440438766046,0.6362669385911421,-24.546603141525292,-2.81430681024073
2,631.3144598486359,-336.36045158774505,11.1146786135598,9.993543151364065,2.4523055877451156,-9.7226216135598,-59.86790078754692,71.0827889111682,55.385512269128036,102.4039696210745,-44.080155828529,-57.06099573258259,63.50400027579444
3,667.1690625983423,-364.9982219143675,2.7154232475391997,8.393627401657682,-1.459441085632477,-9.2410912475391,-55.84529772169124,69.04848627403372,50.513880231628896,95.25141271197816,-26.615502173541135,-50.59192476096016,62.08263900704509
4,698.7937528998932,-368.6855889106934,12.5877271931246,10.903912100106822,6.3531739106933856,-10.0766031931246,-58.737416726877306,80.2387189351107,67.68439139206257,81.56752494540929,-71.68732785348773,-36.9323006110995,92.41840759598067
5,736.3471480523169,-401.04815368823137,6.349557237261299,9.745584947683028,0.8765666882313781,-10.1188342372613,-53.82168916991554,77.1174517622978,59.3561384372744,73.94476449216087,-44.64553367850914,-35.20895637873584,72.57080109971795
6,733.479851601844,-391.0340544325595,65.7727530351809,9.635997398156064,3.2578344325594912,-17.330171035180904,-55.962253361875895,75.30979673308485,74.77540403959495,68.73479463139701,-55.190098194900905,10.953097175307132,73.23894849864999
7,700.2435246571965,-392.8572482052395,78.8630078894206,8.593323342803501,-4.778701794760423,-14.712145889420597,-44.688151482522336,57.48583958319285,28.960868811568062,85.38703395345613,-13.739192116673415,-44.18664387357129,72.10697726872733
8,666.6992491093193,-361.9823726738733,88.318766129139,10.678577890680685,-1.6008753261267543,-11.512887129139003,-53.18584020403595,59.976283031059914,43.248589349973976,93.80675171341936,-33.72603514937893,-54.25458960926626,84.15883526398217
9,630.3667711424874,-350.7891177518211,70.0062123073728,7.245648857512606,-3.992027248178829,-13.677869307372909,-47.63104738261162,51.388935925707734,30.071148031254406,102.9647433541003,-9.681813033667586,-43.339460628169064,76.70981383427532
10,595.3217881478079,-334.1053785777477,72.8823765538946,6.668041852192118,-5.868727422252334,-13.694293553894703,-44.026834141578725,47.814092042887005,22.463984234034587,111.75915946926084,-7.724929599726782,-55.86125001262327,66.5084521830825
11,563.2124070891717,-303.6105357457987,75.2828767859941,8.56987691082827,-2.4138232542013043,-12.580691785994112,-49.641569291867626,47.6590191821699,28.966310363635763,118.84756630474097,-23.645047748351196,-59.6258595225436,70.78724771204453
12,558.8804239448253,-285.00808450212986,173.0187548482862,10.156490055174686,1.7935305021298404,-7.463960848286291,-59.58484754734281,47.707315456299085,45.02276960648529,112.90774401152376,-55.132809749247606,-65.31837455295822,88.66550836936455
13,597.4073201729976,-325.1550218257218,166.885609612913,9.608036827002365,-3.013202174278206,-8.380657612912984,-53.2071159604341,45.89280252334889,37.49355373791249,108.43166324276726,-23.576349936827675,-60.25173002735055,80.58406512082968
14,632.3452602416703,-341.8574576257518,166.69495276607017,9.362469758329667,-4.054802374248197,-10.793143766070273,-51.34567331499189,48.258199307527356,35.61600966062417,99.67636393030855,-31.150320226327498,-54.21764225395991,78.72096433552836
15,666.4594417299282,-366.3733200776065,152.7092121425048,8.6959352700718,-3.829779922393527,-13.297845142504798,-49.374386237743515,49.65074870599919,35.42394842082259,90.26633314028238,-20.494651286642284,-29.735222188419847,88.62254627501225
16,698.9367807188759,-392.2964113212602,171.1187496859945,10.446808281124163,-4.8527556787396975,-11.840829685994493,-45.117244044366615,53.48709688634916,30.498062436744704,82.29806807848465,-17.606030933640614,-52.98133151343092,78.43094198047895
17,734.168572659291,-400.7159375221159,175.0269652909606,12.808949340708978,-0.2086924778840853,-11.18030329096058,-46.617890869031484,59.775028740731244,37.51493572068586,69.2159927772714,-43.612042377117795,-47.812333119751735,94.26044645273298
18,734.957451648391,-391.4606017689291,230.6436615365852,7.817429351609007,2.7005657689291525,-0.32398453658518633,126.16440585544912,-73.47025803496739,-81.34825640363546,57.298912503601876,-69.35623141689788,28.739226333761675,83.66565869055543
19,699.720854097745,-390.7454145501348,249.7383736108083,8.00380290225496,-8.002325449865225,4.8188493891916835,127.21243017401817,-87.64878003688958,-52.274888303021704,76.55885286247074,-160.33711385988343,40.74534201425912,130.47925292020483
20,667.1947979422241,-356.7689194746328,235.5649694236425,11.125467057775836,-0.29268252536718364,0.5370275763575023,121.87696284637249,-83.73851411302356,-58.098331809962374,83.14007636908124,-121.57466332357636,44.16243818289618,126.2392897776951
21,632.0743236512475,-341.272867017589,248.3739024645778,10.519757348752478,-4.648934982410992,3.8223485354221793,122.10476244323692,-89.12600045077649,-50.75651886242942,94.43901785961444,-148.19585897872773,45.39250156351439,134.44634743379777
22,597.0090485383728,-329.91089857295407,243.1580099343533,8.996206461627253,-4.942938427045931,5.01033106564671,120.08280572878459,-87.31542213359701,-52.50643779406371,103.39506399368265,-152.93483071746923,64.73877222357304,139.1723278701967
23,563.3009680463756,-302.5335036680412,244.59768665888421,10.993324953624438,4.366642668041209,3.1237023411157736,109.51704584197331,-69.83061319847516,-78.17663959054718,110.47344022893077,17.974488575237565,-46.01930025994944,10.726076457269405
24,560.4395319529517,-311.907679177289,308.7046669572187,9.149970047048328,3.084623177289018,-2.4444779572186803,108.80129487488642,-49.75138226829084,-92.33351490319465,101.20354643581823,51.78723452707803,-41.632421399556115,1.1222691636903612
25,598.0336279326921,-324.3730004512263,319.3528633981415,9.574552067307877,4.3852494512262865,0.7179826018585231,111.20748006613402,-56.98031193046383,-88.01767495987576,94.68456276153499,33.220876366878414,-31.91514388265176,-4.520155661738507
26,632.6677504231674,-337.2260555724582,323.5285515724509,9.416480576832669,4.2293565724583,3.5948524275490854,114.38537414752996,-61.29184260090975,-86.4516762253236,85.64261862293341,29.507681969549278,-18.571125856604453,-7.458355255964215
27,665.8679329805635,-371.98060090549814,319.1835513231689,9.724279019436494,3.1944579054982114,2.2327816768311095,119.04043071677975,-59.34037121171019,-92.97674877939147,77.57963515782517,38.40470583038035,-32.9820423477249,-3.1295794726173227
28,701.3164507221168,-388.6667539347422,320.27239135269457,9.560396277883228,2.2600269347422,3.8097116473054484,123.73441976820867,-57.8664533838502,-103.25265040626586,66.44227928197056,39.290467813819006,-18.387412554582145,-14.749586801793681
29,732.8805400243393,-412.0179118900976,306.3343932453741,13.169630975660652,-0.6521571099023618,-14.17960824537414,-12.288640023360866,62.245965611279956,-83.14597342259607,48.70811447344962,-59.2892332388045,-54.7769516787487,-148.16502949487045
30,732.889639474067,-388.64845843335024,414.1983232661321,17.017814525932977,3.436948433350267,-11.230535266132108,-33.629781677543725,63.84699361032771,128.8253447554837,1.8340839680204934,-38.474574653045565,44.55760809093037,13.40686565200365
31,700.4576159798125,-369.6813707791473,406.48617532446553,15.996479020187508,0.5899787791473727,-14.001454324465556,-25.863899231860614,56.94841611485403,123.20116697425215,-22.34976492568792,-43.87242871939716,58.28806002291797,8.388685047976018
32,665.779433716671,-348.2869946939125,396.1932500161514,7.226579283329102,9.734628693912498,3.5759359838485807,125.12113628443873,-46.851684521165446,-119.1174474744181,59.989820820547486,32.13335652050494,22.27144233993867,26.251173437703237
33,630.334073844856,-354.3535533072913,403.60099619457327,11.087884155144025,5.2934403072912914,1.8680838054266928,121.28581891245797,-41.01922288771253,-118.37962267802021,77.41908441951617,23.111220965275525,-24.12466344209121,23.946138158312255
34,596.2572125549044,-307.596017817796,395.7501673029809,8.337386445095603,9.47781181779601,1.5011846970190845,112.97267044295239,-44.89835010239924,-102.23324515767625,80.61604911464414,23.117787348086623,9.481441843188545,28.705692489111374
35,563.2418509521349,-304.75101881997193,403.1854097265529,10.666094047865158,6.9596878199719185,1.0625002734470854,108.17813858574658,-43.70024745350902,-95.29681892969292,93.2560532713336,22.715764864822656,-24.946236562670904,31.084076049265835
36,614.6085813173192,-185.0691611126842,401.4532576194516,8.468389682680709,4.384342112684209,2.1217693805483577,120.89639410953133,-41.22374527200886,-99.09972642833006,93.37121853300002,27.96684078045727,-27.76185200851571,31.899663995421815
37,650.6878530099439,-198.64323543057492,413.0482763777899,9.047200990056126,6.145161430574916,3.011898622210083,124.79899517590144,-47.87913535770585,-96.00451749063126,87.2225638950642,7.387717466642158,-35.536373397242244,25.70816408922812
38,689.3982175584728,-207.8990488754132,389.53808156361544,12.237932441527278,0.20612187541320282,-15.075429563615444,-40.42563551798491,35.87768412661856,43.36604420828552,73.31457119267701,-2.3877239181306864,3.93231878292171,76.41604863242922
39,724.6129868943044,-233.8257373793384,414.8103448875299,15.128070105695542,-4.927617620661607,-12.985039887529865,-30.111736762531926,38.064347700634215,26.34795231183658,69.04933333483804,1.931709043521465,-34.9486745439583,68.61607622925985
40,764.329076224201,-243.610868683869,388.3862452753587,13.213072775798992,-1.5134683161309965,-17.971490275358747,-20.00850479077025,42.029932756915905,4.346204815700095,49.50307719948803,15.69035777559349,14.640868289350726,71.00022007790345
41,804.3586448441752,-242.3660745673975,395.6316143606171,15.53643015582486,4.639625567397502,-16.24429836061711,-26.343838761346436,53.465989407655435,36.06813031298723,27.258200849861517,12.751790514350647,25.232203064080128,45.94307699156155
42,802.7864648207347,-235.1234964419268,314.4537486978335,12.136394179265267,7.4766084419268,-15.531239697833485,-35.26308238383892,55.56072385149886,53.57971539934049,47.862500330265135,19.04440463713032,16.794001284575522,29.45844633111497
43,764.6924216633438,-221.441512288343,321.1860107005146,12.417056336656174,7.838919288342993,-12.577678700514639,-44.359930432342026,57.92475029251871,74.86329719776249,63.915094457124496,22.109489115538743,1.9928273109647623,19.802347872475977
44,725.2975994813498,-209.4370679221327,308.9400859891572,10.399422518650113,1.6412979221327078,-14.311227989157203,-43.93632898341472,46.985963597581666,55.989269353240346,72.74930226197374,25.851728233193327,8.703353526357645,25.68423129835083
45,689.3029307621341,-218.9401154253827,326.70594294743,14.372700237865843,-0.44094457461730485,-13.759292947430026,-49.919921986320475,48.613690570445826,69.98983244016405,88.35243918807647,14.02897010522319,-43.06666098337084,28.067963877889074
46,651.4362539969383,-189.61859148899478,326.4121372399989,13.185792003061692,1.65581948899478,-10.294849239998939,-56.92877391842558,54.70070978923247,86.59449575333825,95.16115283704626,5.238592253898524,-28.25680652727651,37.021826355208496
47,612.4490518148694,-196.26767126521068,311.6567907375522,10.392613185130585,-5.97288773478931,-14.515018737552225,-51.09212442185649,34.44786966774297,57.26480025805739,102.15305444303597,34.183866987748075,-34.888836722595556,30.35077412440693
48,612.9753886904218,-181.2354798056153,228.7852372780221,9.120684309578223,1.3940858056153331,-14.913249278022192,-55.99547230892198,45.56247447817277,67.86788112595322,108.65722114225824,17.811411207643587,-28.523020079515486,30.797426811347933
49,650.8251311033694,-187.6042163071657,232.5097305376008,8.47760989663061,2.485041307165716,-14.492486537600797,-55.168980689445775,51.73219264893943,72.25219496888928,100.69724030533294,9.325631012831316,-21.060618710193612,27.514714513107823
50,690.3306200395452,-204.5250033834681,238.405152040307,10.563522960454748,2.143998383468187,-13.900822040306991,-53.02750515081649,57.47585613738738,76.81215612859937,93.85985968711205,11.165572213799871,-27.821700028527204,32.25210775312375
51,726.5740153221501,-231.0500933523264,229.3037835161733,10.571596677849925,-2.2798806476735933,-15.75675351617329,-43.33959120525057,49.628461850979974,54.83609696602446,84.61166036795434,36.96126958640443,-29.264410449568256,28.723102613857343
52,762.9227328009886,-247.6257695576896,252.7772228706302,12.944655199011436,-3.4589074423103625,-12.81214587063019,-43.079601980019,58.978695499646875,65.22982570188991,77.23709698096435,0.4752401869459384,-50.15266082315361,36.96145270371575
53,802.6817369372078,-247.9148966439483,226.3906853743701,10.872787062792213,0.9492766439483091,-16.96444737437011,-30.367697578801707,52.071572968912385,30.244258233615792,60.68945626102652,38.99558471401883,2.1866000329961808,31.232650193487448
54,803.2168720422654,-240.8513180452074,170.0081935760629,12.85105295773451,7.151956045207385,-8.653428576062993,-43.29413462454561,85.77421866329115,107.85649887257581,69.73742539461858,11.249842903603492,-18.23755658918127,-18.126590592491134
55,765.8238011360655,-234.73439611292278,169.2299797280772,13.227408863934443,5.946060112922879,-8.843026728077206,-46.31385018479174,86.41398528539072,108.73048588577518,81.93149054059663,6.848437271272432,-35.50574943334608,-19.390236461876448
56,725.2559315314413,-234.1655277109754,172.64396350395532,13.96694946855871,2.680573710975409,-8.451492503955308,-46.96997068394196,89.23979531198852,112.92969310792276,92.39307512650565,-4.2475511090695255,-58.29070084269151,-19.096398494390378
57,690.2738788332279,-214.0497239393481,164.8549904683066,12.893952166772124,1.0872779393480982,-10.31286046830661,-49.88184636252395,88.93988152815555,114.33635560280425,100.83496583747844,13.644366684846792,-57.833599353623825,-16.768189421313316
58,651.7673151877382,-206.65139260422131,160.5382149372411,10.842866812261832,-4.776260395778678,-6.102925937241082,-53.18522845699809,60.39082641831666,73.44730202253923,109.08952662223449,-169.78321555167673,61.146337505117764,-149.2023169854292
59,611.9119072479053,-199.5942272989832,154.4376085504404,11.147708752094672,-1.6276217010166931,-7.200383550440392,-30.39976253155263,38.010466119326544,20.529103983708634,116.38736918428728,-172.32273117311917,56.775163933551,-109.99263450185028
60,613.0536906445091,-195.4358166959842,73.99590695009151,10.33148135549095,3.5767386959842042,-7.259519950091516,-32.7306069240084,46.18412635202993,23.924393607846127,119.92893860045157,-179.94024642693628,65.35286277340786,-104.42927905536081
61,651.1825528803201,-188.3244132394912,86.3223243076614,9.268449119679872,1.8879182394911993,-8.044058307661402,-40.99174841552042,53.1325908816552,36.312352885612384,110.7245570308174,-33.50973069016666,-64.97242068820171,84.30080985113635
62,688.6003635812322,-197.1661262866165,83.7150178776937,8.207346418767884,0.869083286616501,-8.455134877693695,-40.65161402579329,55.423637339182285,37.394157936345664,101.73641385836171,-40.6978887902297,-54.333285648906376,91.71756533449775
63,725.1754494730142,-233.64674272443818,66.6499312588075,7.663789526985852,-3.803171275561823,-13.890758258807502,-22.552757054305008,50.581122271986544,8.283435107433226,94.18338059261157,0.32017471738439385,-36.71562498982753,73.12097482705494
64,764.1970247474706,-235.55570129637098,65.0990984959096,7.240110252529462,-0.5113297036289168,-18.1151004959096,-31.34615731529477,55.866405486863854,25.747129860255157,83.61905934552809,-15.89816842197185,-23.42123731283959,83.07453446638908
65,804.0241081034732,-255.6226046632167,80.9335875186519,9.168453896526785,-3.8892063367832748,-15.4833125186519,-27.32038602201513,59.556753306703705,20.410173472595723,75.05362380783932,-8.456168017086528,-42.743939869657545,78.95417345611973
66,802.189792864263,-261.8897956326452,3.351845536395,7.6989631357369035,-6.427920367354773,-14.400411536395,-26.23020782335959,65.52156933674743,19.27216739280852,76.33017251488364,0.20611348809340233,-55.21679424663256,78.42506870471263
67,765.2841640093827,-241.344327850175,9.4450107192616,9.075227990617236,-4.041830149824989,-12.632786719261599,-26.385074304678884,62.886762296903626,15.800628201520338,86.41176467286414,-13.794894672445578,-68.75292966234538,74.5130392167532
68,728.4732344807172,-223.2112773840366,-4.9695659671936,8.717351519282829,0.3561703840366022,-12.0299910328064,-30.043284979085634,59.38898410231697,20.38774773260696,95.76372997187526,-19.37409818884412,-53.04553659099549,85.29976319934143
69,688.3407584538209,-220.8675851510561,9.397847938206,11.058864546179166,3.0072691510560787,-10.828243938206,-52.141707357515635,89.07985402888619,86.5073372416556,104.93950347231966,-14.7496762405055,-68.6638479605276,0.6953262249018576
70,652.3638399076799,-192.5534953061811,0.40800739571,9.7245050923201,3.4337423061811023,-10.33931139571,-55.85508280950804,88.83032214285245,88.26044244888442,112.32657722087897,-2.01871978938874,-49.694232134649276,7.10167350133903
71,611.9908693913349,-185.5449429032774,15.019445226318,10.328112608665151,4.4647529032774855,-8.115029226318,-56.31818184888782,88.09086613561182,83.83858543183084,120.11746457606563,-25.91930001076208,-68.11564079623084,18.426030998593774
72,639.568064024508,-53.423982503918204,-3.61851150282,7.847790975491989,0.704903503918203,-10.39352449718,-43.50197592416602,78.97714751671843,75.8327287809819,120.78430912626732,-1.2403675681974036,-63.14093537026104,14.986924197890534
73,677.0791846390824,-51.7505069695827,7.7065389228443,7.960550360917523,4.170220969582701,-9.9980859228443,-43.281356863573286,84.10074777138777,79.81883116942832,111.97651198287197,-21.09106757818759,-51.983915124511284,15.081178161612293
74,717.3315478603488,-64.4551245977257,14.3690752043745,9.23193013965124,2.8917195977256966,-9.7026602043745,-39.90819624458245,82.91341036921447,75.90603873086889,104.06219284554228,-27.701658609545312,-62.9812684766468,38.577333544982466
75,759.6663887978888,-80.86064880853439,-1.6588320783751,8.523290202111184,-2.2092361914656067,-13.293804921624899,-34.82279044515634,75.90048401963665,66.55589308851933,96.4957634827673,3.040379856085309,-64.89476760363608,27.311384453983166
76,797.4209973374633,-71.2659306250557,11.827897970711401,9.686393662536716,4.426101625055793,-11.085743970711402,-35.06163248571899,82.79176329330753,73.9294972295687,85.70425564636442,-29.642507475814703,-48.122660296919655,38.49643419614117
77,838.2440334121782,-77.2141350688765,8.8266317967056,9.495877587821838,1.4499280688765026,-9.3641297967056,-31.914264220548894,83.41344708091388,73.99150925387663,75.4336739899136,-25.64311962849369,-41.13894568486455,41.63881973384591
78,838.0594585053221,-80.6765538415818,91.2250322098645,10.688800494677821,0.14651384158180747,-10.708342209864497,-30.536315047204145,74.4285005545888,68.12141844534116,74.7425557962423,-19.071901110901766,-45.657336178227816,31.842494323919436
79,797.0628112976967,-92.8607180930167,87.5053960833382,12.044663702303296,2.4988000930166976,-12.38154708333819,15.064320654659735,62.676501797584834,-45.00616156535673,85.55663708115353,-164.02907747800134,52.95154171878869,-52.60945079278275
80,759.0924385918994,-79.6905950930953,88.01366942574471,12.234789408100596,8.731025093095298,-14.597995425744713,14.622442596912892,59.09670074121643,-42.02775379842102,95.45856239424404,-177.2909274547616,67.68873664668506,-46.36330010944142
81,718.5271642820182,-82.0013343448296,74.3914718040623,9.080090717981761,-1.2034146551703913,-12.671385804062304,3.728016070644039,49.32743641443288,-16.105544537158384,103.71698130490516,7.2205822973515055,-53.33328384523199,108.8037149340215
82,680.3871414110947,-66.0799370603187,77.04640893258451,10.02988358890525,-0.6650939396812987,-12.156254932584616,0.41925258467069876,46.93666963204382,-12.274563137883856,112.20380210566496,-10.45505991442541,-66.40307630641634,110.49867455073549
83,640.1215475354448,-57.536441695056496,75.0129245189301,8.905203464555143,0.8316806950564981,-11.077211518930099,-27.731055813506327,48.95050438327127,35.06833047693562,119.73108578866524,-6.647271502923102,-62.96073739349497,72.89530141927246
84,640.668518444293,-61.0739339167846,158.8934110234078,10.309488555707048,0.2739249167845941,-10.955549023407798,-28.2825750749294,41.67568658858204,36.269155821268306,116.70113061318345,-1.1435750003727574,-60.380708843091334,74.32760457762699
85,678.2670199862152,-67.08867734336769,146.18046256289261,8.644417013784732,-1.6133686566322183,-14.820823562892627,-22.125842476927364,40.95573715865975,27.005200334631837,107.36480872355699,7.596604700717568,-37.57413904858627,63.888115937199835
86,718.7692300832822,-82.2043942399182,162.5425313342111,9.5096799167178,-5.449273760081709,-15.706792334211116,-17.71261964736751,44.673494534573535,22.794926375375535,100.9130576358278,13.897167180510193,-61.010401549349595,63.14015047537748
87,759.3128930229867,-82.45250434912211,163.61881568175428,10.729076977013278,-1.5389406508778904,-14.694102681754288,-19.014211766679207,48.331511205470854,26.05080963837975,92.27188710438415,7.784157793995502,-55.052814298623915,67.11982198553136
88,798.2706095432081,-90.3771452676338,156.028498907091,9.926465456791902,-3.0663107323662047,-15.718177907091018,-13.933030499668156,50.016302769377766,18.31388642771905,81.81217987198664,21.0093370394729,-40.18913985418489,55.74750230583778
89,835.6779610108546,-73.1049593830183,174.8504685462868,12.688303989145425,3.6110123830182914,-14.059787546286827,-24.591865374946142,61.139264742207324,44.58209172343191,70.35216430349438,-32.70847637187569,-45.49318972868391,83.19947438804044
90,837.0784084337503,-69.9775445380211,234.45002447218218,11.878539566249742,3.550612538021113,-17.832043472182193,-24.963152740501684,56.516783974878614,49.54158368754649,61.80400344332879,-38.35852611964216,-5.250334279064597,86.99053930741847
91,797.0246204306675,-67.0387619736868,230.74153789145598,11.134131569332567,1.9655669736868049,-18.205905891455984,-24.995522793278514,49.80019191260446,40.6478423592195,73.4666985919609,-29.371762056599366,-9.697282951431898,92.60095229328402
92,757.3684339881611,-84.19289269191229,227.7739786101086,10.078141011838966,-3.185649308087619,-17.659873610108605,0.41147915167259985,40.722023090363535,-11.538491764226402,84.2918037567378,5.036028411233295,-18.00610839707745,101.04057598214881
93,719.820467426613,-65.49832597933961,242.93848622423837,12.779082573386972,-0.1055370206603925,-14.147590224238371,-6.42031031520029,37.69245666674573,-1.5177886332753716,95.32963508740905,-19.829497649485592,-48.96110771211531,96.35352229835107
94,677.3343306711732,-77.8948366223049,252.1302432427211,11.986065328826726,-4.201893377695001,-10.225247242721082,0.5944522495193766,35.57560164023523,-9.615142518710574,104.33610305443482,9.953757653548134,-65.22576091010814,85.0712943304765
95,640.6097116677238,-65.53469220604451,241.0732202960728,11.961023332276227,-0.8406377939554801,-12.941392296072792,-3.4499485945816044,30.984402191281042,-4.454880470899974,111.4459682479624,-4.37671974572785,-53.97682849373688,92.90797063918507
96,638.2629921810561,-53.811957882287004,331.4152700005858,14.286435818943914,0.3745558822870052,-11.028171000585871,-7.882710258983671,27.08653685027081,-0.014369265839865428,104.33899334003236,-22.551686654552146,-59.41451309631571,98.74149321858722
97,679.5386241811871,-64.1010169638357,328.67969620072853,13.430699818812968,-0.7874740361642978,-10.671656200728535,-5.889728192118445,30.19512194606317,-1.8183177737803198,96.81784603501792,-14.19786242147995,-49.64269578418863,97.96293868599842
98,718.7683954262646,-70.8428186468016,308.5874652494573,11.84286057373538,0.3644176468016127,-18.105534249457378,-8.849920198352455,32.958791319328036,4.142815913809879,85.20450655947818,-21.184004082755227,-13.686345640918422,104.57494824626534
99,758.9305368836989,-66.8204072167722,325.1496456043142,14.55237111630106,0.7981262167721894,-16.759514604314177,-14.684557982807059,38.609220708929556,14.546075344231086,78.23397794082445,-28.094623145730278,-33.74423876337538,108.68883981818253
100,799.0330872265056,-79.28952347313229,311.63077952033257,12.779912773494402,-1.9958185268677084,-18.53374752033261,-9.852560759152318,42.19792031551837,7.839485979144325,65.37845198527087,-27.707377072115396,-6.754453342559517,104.01464685964584
101,835.5760552173903,-70.3727926682035,307.2033890584267,12.303365782609717,3.9066776682035,-19.997967058426696,-24.34557350794809,57.52119486067387,64.74323991927635,47.401236360111604,-48.30865099158605,22.571795009442717,89.07433741934733
102,837.9215565748916,-84.6902523913611,387.94891462895146,14.332780425108353,-1.3665326086388916,-19.76963862895144,-13.973810885328149,54.81877685294811,49.647597953787994,24.64505247411034,-52.7552169281462,34.22604556231553,95.55049421731793
103,796.6619148120022,-93.56747234055959,408.35210229446886,18.16538118799781,0.19200734055958435,-15.508946294468842,3.1101261230781434,67.96337909563977,44.694159231483184,-28.916468822333112,-50.213478975303815,29.620942891392026,90.59854346640708
104,759.1846702737781,-69.2120286963978,393.7299462614282,15.861806726221857,1.6431676963977964,-13.739496261428258,-20.92472629921787,38.32693150794526,31.916607044973187,64.5149215664242,-179.43968339620628,-0.2998564307576851,-119.18812307895465
105,718.3830554806227,-66.861299261512,387.9538259748187,14.625526519377331,-1.7371537384880043,-15.989879974818734,-19.330517300073083,32.40963625365501,24.435663959259973,73.53535858826996,-173.3152771915971,-2.8409230489515163,-112.76186139384056
106,680.0354094044586,-68.8596975339925,406.02489787277517,15.29260059554133,2.8670745339925077,-10.17338487277516,-23.09704123387429,28.812738537750345,29.281303193425213,86.87837645919008,-173.16952727093923,31.686095008610828,-108.83130852413922
107,639.4590535008898,-70.894882178229,406.4738056479604,15.23607249911015,0.24395017822899945,-7.949288647960373,-18.86976733035756,23.72267086722415,21.129580483373356,94.7883874695624,-163.83301229453582,38.37416677882942,-115.63561297639656
108,638.6094592177844,49.615698991764496,403.00866619183665,14.755463782215543,-1.5925409917644942,-7.3411141918366525,-0.12043561394494001,23.44955420487788,13.617789693744971,93.26237694922267,-134.83569821057728,43.35625648486286,-131.87522132972754
109,677.395879291992,58.6248165172224,386.0505129262416,11.86564970800805,-0.5023795172224013,-17.18897092624161,27.4095577927983,29.75406889024554,-36.15771449879133,81.7691041028078,-9.886366414980628,3.034433528200103,110.18071299742633
110,717.4329733122205,61.760753108329595,412.4569555594552,14.350720687779472,-2.6483521083296964,-11.405866559455262,34.91145709634733,41.49797037850559,-60.33441396783632,78.15905568770195,11.264151779691751,-28.62709620142339,115.02668758378906
111,758.0947016555768,83.11337713185341,410.34698005255274,15.360820344423132,3.3006238681465874,-11.43905905255275,21.99367469269043,39.49818587021767,-37.38413094574776,68.53850742678588,-21.303472543941986,-33.91850250166571,126.33738364726406
112,798.5199454091355,89.9046867785759,397.84130438390207,15.367341590864498,9.347829221424107,-14.956163383902094,11.435000001973748,67.57364959375768,34.90331416286715,-26.718603293169068,-15.884172266248173,50.23188535906395,64.75841338867745
113,837.4064556196164,87.4847907654993,413.2200359470774,18.13725338038364,7.716461234500699,-14.92090294707748,8.737718045219324,66.53533043539299,32.31714367678704,-12.73377712234219,-20.76084335296394,17.05074733950353,66.80910147283709
114,837.0293689503064,77.3539004554266,306.5181705040816,13.0227610496936,-1.0424574554266997,-18.64566550408159,11.11904420201802,72.34149846266956,28.231425929346702,-22.228112750456578,-42.17049637820379,54.97602930241367,96.96288365454487
115,799.4110753323334,85.5079449892053,320.684452349708,14.33792666766658,-0.2929779892052977,-16.68430334970799,16.721909041890523,43.838729633718756,-25.690131617725086,67.52093696094362,-23.909169775454824,-24.256491519651412,128.9726652107538
116,759.4647587751872,69.8949676449027,324.7822967377602,13.603175224812844,-0.059918644902708706,-13.360528737760205,29.69182722445333,44.96933785434256,-50.229409035473395,78.48929343472957,0.7535572434239319,-28.276429013956815,119.93751165334855
117,719.9005039498126,71.8185551841293,314.3202737459908,12.698000050187488,1.6414638158707078,-15.975980745990796,24.26337555026413,36.118711600099175,-33.69644823909196,86.50982760271215,-18.209176442602395,-23.412412788766325,124.72752407676214
118,677.2797773473376,78.7394967605592,331.5024132728725,13.968606652662402,5.202095239440794,-11.242878272872531,20.848545601594157,32.4872855566992,-27.222253993457027,97.02669791759737,-16.34371197721304,-57.474616027535596,128.17347021737007
119,638.1656719816611,54.734777959602795,307.5915251296787,10.855499018338833,0.48033804039720707,-15.296382129678705,33.4616197678842,30.15523302543662,-42.781082145205794,100.7800127105023,-1.3491718524222904,-16.565430429223067,120.76373169082987
120,640.0236231230982,70.130649097725,237.7107263344683,11.154700876901757,4.0318159022749995,-12.879540334468288,25.626046001860807,33.78996119649727,-32.85821035456198,111.03662892176726,-16.03969656041206,-52.344756438137566,117.52445263013698
121,677.8002234078585,57.0965567116386,251.5639288416337,11.150136592141507,-0.5919807116385982,-10.167634841633685,32.90986960446969,42.144959534683245,-45.56315033918791,103.76162503038617,18.1515618693721,-56.83660282817645,105.07046265938354
122,719.7055457928153,77.3592583383119,236.7842805019234,11.208756207184706,3.6197136616880954,-14.521462501923395,23.067380870397972,40.16244420352369,-31.99165569258528,94.99410756483366,-17.413092724637803,-41.5946984312825,113.71341680844344
123,759.2447887557389,74.09168681444079,248.3271897367417,12.29310024426104,0.35870718555921144,-12.4344037367417,25.087165616440522,46.05918654497013,-37.647077378047335,86.99245029355257,4.692815404681369,-46.96830647073022,111.92999256545704
124,796.9617845485236,90.9209168853779,250.627725333739,12.737728451476414,3.8338221146220945,-12.614686333739087,18.210965675205028,48.35937402845651,-28.899777129366466,76.96752646900372,-13.601792196442902,-51.98884571281729,121.94393049724205
125,839.311894070051,82.99773266495001,234.8608679351577,11.385358929949007,2.083166335049995,-17.0532979351577,16.84516756159629,51.36012537323315,-26.79680590155602,63.62340502407437,-8.24002129315525,-15.591523644553234,127.31673685414283
126,835.2808131755922,98.93533652902781,171.3290867078261,11.480920824407804,4.675818470972189,-12.194707707826097,15.827943506036966,56.69780254179886,-26.84986992938582,71.06108469693085,-15.125967934035275,-57.784558864614546,118.10219611254743
127,798.2546281564704,68.3497770277844,156.3006658850368,9.758298843529587,-2.168527027784407,-15.946485885036822,25.31748783188535,54.322291390958725,-39.59661950375913,80.94820604110232,20.75194869885655,-27.909431899075432,109.34709492889428
128,759.1760340439026,79.84228882254119,152.54013935721662,9.557833956097397,1.5784281774587186,-16.645421357216605,17.286306217308514,46.680025219828664,-21.967157747565537,91.28765195331617,-10.891501232950034,-38.01934364199586,110.46820322279592
129,719.9973112613017,74.1341988566178,156.12473127756678,9.969078738698386,-0.35403785661780773,-16.268231277566798,17.509158495499324,43.62850185029008,-20.461552374254268,100.55341128297904,-3.7312851386399375,-47.85913168220444,114.32656667617022
130,679.9324678957083,59.919595064381,159.3679538352711,10.177136104291662,0.541197935618996,-12.970861835271194,26.7086024867424,43.80809535658227,-33.802593941851654,108.62491560452914,11.21807938394859,-53.0444245945067,100.20838039593473
131,639.9482804342431,56.251691544328295,155.007889242451,9.458503565756928,1.7179824556717023,-13.587391242450991,23.753986505770598,39.220834935173826,-26.880707491948016,116.05219993222119,10.5326200079409,-53.1475700037722,110.60272311337343
132,636.5067228990947,76.1158008853542,93.15084646943771,8.817560100905325,5.899276114645801,-6.4563674694377085,-32.066574794439894,86.29090512744659,95.9126734446916,119.95481434850792,-11.177734388917115,-69.61419535091522,1.639619055676778
133,678.4867224589008,77.1184688951012,71.7441659354877,8.454938541099182,1.3731391048987973,-13.954035935487802,-30.580690227366567,79.11962149388684,90.09686345445547,111.78097581133869,20.24457955977397,-66.86605880618058,-1.2217387049254178
134,720.2580957810203,69.8656732037,80.0669667412367,9.101225218979721,-4.542445203699998,-16.180096741236696,-14.440173263125876,55.17995214367317,40.24062693027515,104.07272988316943,11.662853113096242,-69.15171946043343,55.68581715395197
135,759.6379078778702,81.2480017776256,80.8640244458955,9.71489012212976,-1.6817457776256077,-14.510077445895504,-12.600035766816706,56.6549100045229,36.86406741105204,95.42833388581808,1.3528363185926087,-57.96523990209768,49.68076361575914
136,798.0584457523238,89.6849614096844,86.9565338962818,10.236569247676243,1.905098590315589,-13.943928896281804,-12.91586964135363,61.067214726511835,40.17177327423135,85.78002988772826,-10.55201101967197,-55.481971089037025,53.69900710304746
137,838.8704946072659,91.5976657507287,81.2573442829256,9.994966392734113,0.4331652492712976,-13.240852282925601,-10.242458825217742,63.11336853727235,38.77837492419447,75.14606923028074,-2.216213242045958,-43.08259488235765,53.63467746445822
138,837.6106148590264,96.69443924432319,1.3081101567389999,8.507653140973503,4.6869397556768035,-15.3358361567389,-13.227805913193396,71.33213063250973,45.75617787231097,76.0255450645659,-14.759864060356502,-43.969900528687944,61.738787610917825
139,799.6580706696301,80.0573740254382,-3.9119199872148003,8.288658330369913,-0.620846025438297,-15.428582012785201,-10.750205715374648,65.5323725132704,37.248414432815125,86.86981939181558,9.307915444284767,-56.45125158328585,53.44530139136352
140,759.2844715543552,71.4757974716715,-7.2770169892569,7.800519445644795,-2.8493414716714938,-14.9236400107431,-10.354097703542479,62.11353180273874,34.51325097036516,96.03510106100289,17.569377333795828,-62.30104576299927,50.52509983387736
141,719.8995144020989,68.5737308081821,5.1588654542849,10.327117597901065,3.5620161918178894,-15.8937714542849,39.38264967567467,80.57374935950303,-74.46862937264416,105.00966135219251,-168.69372667854455,64.15863074090264,-14.114202275502821
142,678.1941102587774,54.1745478112939,-5.933813858467899,9.106781741222562,1.6169861887061003,-16.3105661415321,41.59335427229512,76.26392850970933,-71.3898613442851,112.38849058185458,-177.81973478377725,50.45724306710131,-13.436088103837148
143,639.856621741132,54.0969363417193,0.5769765407691,9.419621258868005,0.5747126582807027,-17.3058635407691,43.407734966586204,79.64884954581144,-75.74161886586515,120.88938339795013,-172.90643914617692,66.10614024154043,-15.20374139703367
144,613.6971959820755,185.90005127175792,-9.017395613629201,6.926739017924433,0.8692737282420921,-10.7364073863708,27.60594835899567,52.60869769705683,-13.027295608561696,120.62523409805544,17.344080301988974,-67.85078721661438,89.7275956505362
145,650.3932875389829,186.8418497336261,-8.7314670101827,5.943545461017038,-1.296358733626107,-11.895929989817299,26.761634715414576,54.044823343341555,-9.891164592740171,111.22728624308344,37.61941451733219,-61.68119819053475,96.03799220603712
146,690.4299742832532,206.89631567576382,-3.8515204483491,7.147617716746822,-3.063425675763824,-13.688864551650898,27.131634931283354,56.47252619376841,-12.793222524911045,104.19967555817419,25.764605416781322,-62.46025767082839,89.96109732337777
147,727.759567436513,219.3244299980538,8.778479005090102,8.923840563487033,6.016665001946194,-8.933187005090101,34.179672993983495,62.698150893282296,-28.15350017416636,95.12619175452828,-150.73893060542983,68.25318808120626,-79.1940664158702
148,764.2996358650769,249.4355925138577,-1.1708107311362999,7.282200134923073,4.8929944861423,-12.813428268863701,25.09714407751318,61.42891857080289,-14.884295023598447,86.99038311912352,-2.176427110047853,-56.46387430187882,104.34325838056353
149,803.0361694921532,257.5361710373653,7.0262100452419,8.171230507846758,4.251160962634685,-11.660546045241901,24.13632955034943,65.30406911461672,-13.295328932053785,76.10385785273685,7.589144790224965,-59.08145920442926,105.78982744317167
150,802.2038128005856,261.8057002563382,83.5407208731835,9.45262219941435,3.8291907436617976,-13.428319873183497,24.284992445733504,59.12744342196774,-14.772588937324342,75.2399229829826,-2.3530203801416274,-48.667133094195094,105.35357451317007
151,764.3379904193033,236.2635251613037,65.5483289391742,7.8650455806966875,0.0484318386962741,-17.714671939174195,29.175171642723054,55.113879338288044,-21.02039598435562,83.76962709639785,18.354485071166433,-25.280584479737666,103.5717395978116
152,727.9013241674585,222.6084224656468,71.3471199126365,8.25888283254153,-1.2123184656468027,-16.414582912636504,33.76491824259613,53.74211306710211,-27.988573642584377,94.08259427977174,16.561902842670005,-38.69381987543713,98.75008936168335
153,689.4946065765367,216.9113171946311,87.7610341106043,10.010689423463305,0.1939308053688933,-10.224992110604305,40.05094816357728,56.26231771901743,-40.39677586302729,104.09405646092401,11.01533551794413,-68.77302592782648,112.73291499307275
154,650.0397335840355,184.1149870111709,73.78933754644811,7.808062415964514,-2.3301850111709257,-12.525933546448108,45.88086385906753,54.79885998055267,-45.82113025872773,109.53473047079895,32.98655456224889,-41.35630421453253,103.33148126287517
155,613.4936590190755,192.4844904857975,73.0002670561702,8.359160980924457,1.7542635142025063,-12.291347056170203,38.06629839274352,48.02123020870122,-32.769497866747386,119.74595788226613,1.3621835520623728,-62.26711222299108,110.77319289703175
156,614.2791942567046,181.13320963449252,156.4227769181961,9.490890743295381,1.0160243655074908,-11.872959918196102,45.144686602809536,43.53489624560929,-42.74777610857484,115.54782403925195,16.711686672684475,-49.40367824665334,101.75351492967299
157,651.3612710996533,189.12277266934498,166.2603899712338,8.99755890034669,1.6244323306550257,-10.20401897123378,43.97836792816751,47.407181656672776,-42.21916868453391,107.77815852513491,30.350418833278173,-55.93829392846112,109.26110020908511
158,687.9834672252157,215.6416037691663,145.75794370528538,7.621709774784335,2.6239402308337105,-16.995102705285404,35.281328797782656,44.569669310884116,-30.27770206659648,98.87021363036241,-4.140008535205297,-29.891985503815704,105.35611311727297
159,725.1137657823065,232.825911199599,174.17196424518238,10.77387821769355,3.6212438004009755,-10.371022245182388,33.529694774284415,50.393824316814786,-30.15939602218448,92.32135685337353,6.697550669389674,-66.55159372781623,109.44803599763458
160,765.625014123383,224.85431137467128,161.51622539946288,10.109465876616923,-1.5250233746712922,-15.293026399462889,37.597095748563774,55.017539464417325,-38.79582034314061,80.06704634115307,44.44454518330162,-34.20181466149743,91.38598623597596
161,802.3480298406027,260.63918866158696,165.7679845312031,11.00296615939726,3.8067933384130583,-15.343336531203107,27.61150725281981,55.304644776740155,-23.04139053078259,71.70307244721903,-1.846882699248126,-43.15683107581624,104.36740339500814
162,803.892627512082,240.0280900930377,245.593623064,12.609580487918038,-0.181933093037685,-16.438910064000112,35.87742451944159,56.0471320744917,-44.18293620638322,62.91744057719877,49.698918929413445,-23.838539778358783,85.13473147270825
163,765.6522910365954,238.1045927650166,249.4530827505894,12.26530896340455,3.252288234983382,-14.440795750589416,32.19891738810012,48.3749402031304,-29.142766238450264,76.6849240892886,17.3366547116683,-41.51526533873473,101.64847085286598
164,725.5460770356925,209.5227063109881,250.214873793384,11.693351964307453,-0.4906773109881044,-13.034440793383993,40.950352272118,48.636245340530046,-42.91798009711199,84.37761255174246,47.02823905931227,-42.94347156237516,86.38505040107461
165,688.1170702047332,225.0361016908068,239.9151374958633,11.11463579526685,4.954687309193218,-14.462837495863283,25.411752910988337,37.833468799395646,-13.607828535997724,95.38962755008068,-7.55070585389055,-43.329069580188126,105.36657211804841
166,650.1758178727157,186.1683529488134,231.1027694418821,9.59996112728436,-0.1292009488134056,-15.441600441882088,46.94700086323095,41.26721649665791,-47.7122152194757,100.2220949429021,36.862249014897635,-23.09438998626888,86.20203289899871
167,613.0886486862142,181.59801503346932,229.0884274427696,8.828065313785714,1.8713049665306585,-16.16742444276963,41.87350066842141,34.044099090246064,-35.66865422605216,108.75315954460189,20.567400368143616,-29.969219985416217,87.62020055829376
168,613.8229588449558,180.1484536646655,313.4410289196121,10.693278155044254,2.4130663353344914,-14.706952919612093,46.85847745148874,31.069595056655924,-43.99610481074403,101.39035227753973,25.586938595666815,-23.643647955161914,81.4987794637972
169,652.1557311220938,204.46525650260338,320.84443884808087,11.9690388779062,4.445368497396601,-14.776967848080915,34.186269915445074,31.34662576558807,-26.01350567414171,95.91112559920806,5.187995325038774,-35.149729674157385,90.32868521504172
170,689.5414530353493,213.4757115744646,310.4603241493223,11.261554964650713,2.6675134255353896,-16.169654149322298,34.47555114958647,35.28916628746225,-28.72141502396756,85.33989482489,8.874577322474352,-13.652422299558992,88.9290086799647
171,727.9165826304443,222.38774350378858,328.57660551350807,13.7034263695557,0.2374504962114088,-15.01120551350806,36.6313106979357,41.93575069939743,-36.171985044003094,78.52161152023439,21.799854472457795,-33.66893514954445,91.98464611565542
172,764.2412373150704,249.6386232287416,319.4986063320281,12.595396684929597,5.596823771258386,-17.874538332028067,21.815938486386926,42.31211046031327,-9.129117088820653,67.30623603871257,-13.936498040244286,-19.631286395302634,102.09272886270224
173,802.9651400469836,259.9362422990789,319.78550751859706,12.840227953016438,5.938494700921012,-16.504802518597046,21.403565692441262,47.90595201705337,-9.410419484594396,53.953720933971915,-8.850904826323388,-11.541318165029784,105.30597787780454
174,802.7009965221561,252.09942081969737,412.6578868582122,16.9316284778439,2.149422180302622,-14.614186858212179,28.999775797125324,52.24029998684525,-41.906524351450926,38.346684113340835,19.687969854820057,-10.353847836648024,100.28882716541365
175,766.1270975469731,235.7349773541387,407.6315406837286,16.02757245302689,1.427407645861308,-15.345307683728606,34.91110444082442,46.399308444217326,-45.43100936937578,54.81135154910634,21.521031379655142,-11.170541877827498,99.04029632373434
176,725.7838242963269,213.3109480989207,387.0074425901646,12.16513670367317,0.917614901079304,-18.836985590164602,42.22758755448823,45.83368531100509,-61.524814688861284,60.15118853937657,25.27874517062374,20.666412689058163,104.46800103284603
177,686.3209771191111,195.1476959152405,411.9633723921374,14.247280880888866,-1.714111915240494,-13.761980392137389,51.86804225996787,53.372237584145324,-86.70677496929483,75.60406934635431,32.823662202726965,-10.53573707023375,120.2998828215836
178,652.5999308918805,197.8490126368861,402.5878874625924,13.162347108119548,4.351965363113891,-13.941032462592375,48.23877621015976,34.56498132433524,-54.583930505457154,85.67377320304364,1.7553286272485815,-20.9233555549888,107.62379515805553
179,612.2843758270387,199.2820986629961,397.0320020772245,13.183287172961286,6.0586433370039,-15.07527907722448,32.710330119526056,23.43114621683592,-23.35763865380539,93.1535290056138,-20.038638761160023,-23.43383172731748,120.19469940144081
180,561.9949575997397,289.58113642861326,394.39580420512686,10.66611140026032,1.6046575713867242,-14.27223420512695,71.93309758404708,43.2510598866908,-82.8957122185849,89.09644276133706,16.72798583226568,3.4777459857870534,118.70214566292795
181,595.3938696787909,326.4239234132403,414.2277949124001,12.685761321209043,5.709181586759712,-10.696456912400095,64.36407942606635,40.029604740863526,-66.75071306280869,87.02065414101789,12.471071733387022,-34.300572130784694,123.29995354979542
182,632.2001988519521,333.4260622661298,404.2000109046014,11.953623148047882,3.931028733870221,-13.534772904601482,63.50626391745144,50.40920576989553,-81.81030194551732,74.38446450814531,28.374199563441966,-1.8306727491956232,119.80363444952985
183,665.0776945413338,354.10931417891913,386.74187980428945,10.131057458666191,3.6756608210807826,-18.566206804289493,55.89643391842777,49.30858117553605,-71.3229253779816,58.61536302282314,26.448240953535553,26.760612043046045,120.09488700226116
184,701.7923962611752,384.85255541547804,403.2173187960729,13.932549738824832,4.259065584521977,-17.95237379607289,50.30500164921619,49.88096658582953,-59.86040329102296,52.84819732128094,23.03992983217968,0.6062405696752957,107.31755001869901
185,735.7608488656383,408.7968826997352,403.8374595132271,14.468750134361699,5.335795300264806,-15.609632513227155,43.03011595902823,54.88491314205695,-57.21629227602291,34.41753716747719,28.948152528967153,8.26051822802248,114.16951229821443
186,734.689074861654,409.1979934894376,310.0800939710821,11.81974913834597,3.1067235105624036,-21.288746971082105,43.84768863098653,52.00633565058411,-41.08693601396935,49.75853982895495,23.898770190402743,9.9173005209313,94.43251581996374
187,699.5108720447433,371.39934990876213,307.60118801157347,10.669838955256637,-0.2076649087621263,-19.433845011573453,55.043973101478805,57.227263329179856,-73.98409197144397,59.20433166517267,27.06899036156961,23.450536598313416,115.17819595947111
188,665.7363614057938,348.61029647678185,325.0593956610151,12.395453594206174,-1.76765947678183,-15.503907661015148,61.78362310537287,62.64711301610342,-90.55240208654537,74.10262175587498,26.34121931289866,1.386421271078233,122.47564627461736
189,630.3353822564934,329.6669100379142,309.4117761885519,10.061888743506643,0.8898919620858123,-17.292693188551937,64.17550497822282,51.48399311896248,-75.96607823337551,81.44823713781533,26.922177947976465,9.205118737133386,121.42069082830481
190,594.9563497828166,331.15879563885954,332.449250704949,11.612417217183406,6.496790361140484,-10.125906704948989,60.313656509059655,39.33018943076937,-54.17557592182452,96.87647480084138,9.034475977516722,-48.023422975478965,122.62547783201617
191,561.1589462113822,287.7966584315047,327.8229864788667,11.316686788617858,1.3436425684952837,-11.565247478866752,72.39165008873094,50.4724115517696,-82.96648700211578,100.85716405592675,38.25993033904468,-23.11959508722604,101.63390070802315
192,562.8504358504732,300.2620329652117,248.1639068368948,9.74656514952676,3.023859034788302,-10.673639836894893,66.7612442562663,45.84420687877175,-63.18211166975747,110.44538397539348,22.181717492995862,-48.01887947745936,113.12217117452029
193,597.5800581923185,314.2138993547239,245.05662068852521,8.986475807681586,2.840407645276116,-12.099509688525217,66.55175392681573,51.50982354605725,-68.52336713164111,101.41079283335993,31.02389009874678,-32.449932489978124,106.0959192590222
194,631.7303551516351,333.3185276315552,232.47104687425272,8.23561884836488,2.5120833684447916,-15.854175874252746,62.86795129034856,51.56729837488131,-64.76687419914238,91.24845149877625,33.517051371915045,-10.852411588447689,106.38639854791322
195,665.8847363910477,356.1480359778809,251.3110968790598,10.946853608952324,0.5618010221190843,-13.66860687905978,60.77397796364019,57.9858037011396,-68.380891779374,84.4951323261722,40.61334531521981,-30.86039395630034,113.29523439434249
196,698.5048207019145,389.45525202645797,254.847597240164,11.907575298085476,3.4888859735420397,-11.710923240163993,54.111318189438585,56.34069863187022,-56.953409270151255,76.52509476213943,21.165346113227248,-41.905146731728316,123.46552471619269
197,734.4925231869676,385.8938438954479,239.33359634789912,10.747265813032413,-1.5567898954478778,-17.02924434789921,53.840316658088824,75.64854525249713,-101.98149414880619,56.98741557579942,47.88716730926111,22.601650235865158,119.17709283925745
198,736.0876199860597,401.53527210474374,167.847544422851,12.237413013940227,-1.633857104743754,-14.868769422850988,54.757431063964376,68.41593995147682,-68.19090120904401,69.50205628043534,37.107042310782525,-23.57894354487889,109.07590243071141
199,702.0761720356554,377.4493936148151,161.5998863203706,10.418228964344621,-0.40005161481508367,-15.222249320370594,57.775184472945284,64.1054706280506,-65.2556943452696,79.72781848524939,35.34619913664315,-20.686214110457882,109.76467178390156
200,666.6090295408648,360.4860826039601,168.9819364025862,11.41478145913527,-1.0837796039601244,-13.470543402586202,60.06844461020964,61.61881534794181,-63.89470798852015,90.54273766364022,30.49766216842903,-39.026139006247114,114.00048619631251
201,630.1351996677151,348.6567386695925,147.33136118110778,7.158566332284863,4.309357330407465,-16.879001181107782,52.660362218176246,47.232218967168166,-40.1106848005934,98.69948326549887,3.051011603635977,-28.41227174949172,118.91821377704976
202,596.4375621572239,331.9994498489336,163.5708288285978,10.329010842776142,3.0424541510664085,-11.734463828597796,57.15400305473371,48.367806993172586,-47.375308587487446,108.95790309060715,8.439041219970255,-57.45157424332552,116.80550100621491
203,562.0346511653092,303.9147884628922,148.9878167323808,8.451869834690797,3.581201537107802,-12.979815732380814,58.06666145324496,43.27321851375547,-44.529980352528064,114.55312352757701,12.24776085977699,-37.95704387828322,120.16593772226618
204,561.4546453949557,286.4007346995001,79.2758940066756,8.18742060504428,-2.2565326995000987,-10.677357006675692,67.32086049995439,63.406330452289666,-65.42738710734162,116.07511721270241,38.25617603309208,-36.44922585655872,109.58060250320115
205,598.2029675243059,321.847262288376,81.1288849006105,8.118812475694085,-0.07653228837597226,-11.844278900610504,59.992665441408754,58.06949702137307,-52.10937781285493,110.97366538644897,23.038459679773155,-52.82302413407297,123.03859673160264
206,628.614577344179,352.5632228469625,65.8330916459065,6.277206655821033,2.9963511530374944,-15.493851645906602,50.77617870595796,52.760724026585656,-37.18622828663326,102.60885245311974,-2.8873134362709765,-38.48637403128692,127.41667341327671
207,665.6822152124939,372.400354046429,82.4740348215838,9.389322787506103,2.265678953571012,-12.129416821583803,54.490393025458204,60.84755680262044,-48.755258930523254,95.05763993265094,11.382390616154382,-51.86157408212286,120.55497469006129
208,698.5093224614283,368.6634304521402,93.45258465052859,7.4462125385717854,3.25448354785982,-4.82953865052859,43.39320338180298,59.35080225214523,-22.35367295621695,80.82947852893624,-124.44219000616718,67.28904902373203,-120.49165752519184
209,735.3595303675739,388.92537119462276,78.05875408418831,8.170113632426023,-0.2700991946227873,-8.997901084188413,37.836829368751424,60.18269772306622,-11.442675860259337,69.54706125580617,-113.1500416751404,50.39382340008231,-122.47999141464828
210,734.6567875068531,390.49405801952867,9.764594560758901,8.818852493146892,1.0169919804713459,-6.5158155607589014,40.22292041446177,67.57210472765466,-17.654908759931857,71.01646388976164,-124.70038398273928,63.63636802230187,-109.67999578375367
211,700.7346982451008,391.0213537317337,1.8890281515674,5.675633754899195,9.178549268266295,-10.4439821515674,36.519352395640176,61.54472537331254,-10.770814835378165,86.39573440237619,-160.02316518837983,58.800608986947424,-84.62254358668129
212,666.7392200632067,352.4849767686497,-3.6337487708837,8.61794293679327,3.9578702313502276,-10.055307229116298,40.64636636264346,59.46829819153069,-14.500245366931042,92.99540904075062,-129.523235940547,56.90581469743377,-94.73481769188682
213,631.1489852945343,333.23255357105654,10.2466877560758,8.862570705465714,4.7140634289434615,-9.5572297560758,54.74629740538517,65.41555902391472,-41.893642197568326,101.86204413686043,-131.32546849718685,63.508899351421704,-70.87911708271874
214,597.5337291728116,312.0775851937166,0.5439384646829,9.026666827188365,3.646579806283455,-9.226350464682799,55.08472260471364,61.612306318206016,-39.34685751787486,110.38956144225901,-135.68092251327795,56.87534136414194,-71.96501098946119
215,562.688217650029,306.3647029187154,6.341084191607,6.8068293499710535,6.8233190812845805,1.495453808393001,-113.8290903982657,-75.82847462664884,111.41927162327295,120.44267238390556,-159.95267969123972,66.96319142445662,-31.283368302920874
